;Generated with Cura_SteamEngine 14.09
; Default start code
G28 ; Home extruder
G1 Z5 F500
M107 ; Turn off fan
G90 ; Absolute positioning
M82 ; Extruder in absolute mode
M190 S35
; Activate all used extruder
M104 T0 S195
G92 E0 ; Reset extruder position
; Wait for all used extruders to reach temperature
M109 T0 S195
;Layer count: 22
;LAYER:0
M107
G0 F3060 X73.821 Y91.575 Z0.250
G0 X75.332 Y90.414
;TYPE:SKIRT
G1 F1260 X76.661 Y89.864 E0.08970
G1 X77.103 Y89.681 E0.11953
G1 X78.741 Y89.466 E0.22256
G1 X141.215 Y89.460 E4.11861
G1 X142.429 Y89.619 E4.19496
G1 X142.903 Y89.684 E4.22480
G1 X144.221 Y90.229 E4.31374
G1 X144.665 Y90.413 E4.34372
G1 X145.806 Y91.289 E4.43342
G1 X146.184 Y91.581 E4.46321
G1 X147.049 Y92.710 E4.55191
G1 X147.050 Y92.709 E4.55200
G1 X147.345 Y93.092 E4.58215
G1 X147.894 Y94.419 E4.67170
G1 X148.078 Y94.861 E4.70156
G1 X148.293 Y96.490 E4.80403
G1 X148.300 Y97.792 E4.88523
G1 X148.300 Y121.960 E6.39241
G1 X149.200 Y121.960 E6.44854
G1 X149.200 Y130.960 E7.00980
G1 X136.700 Y130.960 E7.78934
G1 X136.700 Y121.960 E8.35060
G1 X137.700 Y121.960 E8.41296
G1 X137.700 Y100.980 E9.72133
G1 X137.648 Y100.584 E9.74624
G1 X137.581 Y100.422 E9.75718
G1 X137.476 Y100.285 E9.76794
G1 X137.336 Y100.178 E9.77893
G1 X137.175 Y100.111 E9.78980
G1 X136.828 Y100.066 E9.81162
G1 X83.215 Y100.060 E13.15508
G1 X82.824 Y100.111 E13.17967
G1 X82.662 Y100.178 E13.19060
G1 X82.526 Y100.283 E13.20132
G1 X82.418 Y100.424 E13.21239
G1 X82.351 Y100.584 E13.22321
G1 X82.305 Y100.941 E13.24566
G1 X82.300 Y101.657 E13.29031
G1 X82.300 Y121.960 E14.55646
G1 X83.200 Y121.960 E14.61259
G1 X83.200 Y130.960 E15.17385
G1 X70.900 Y130.960 E15.94092
G1 X70.900 Y121.960 E16.50218
G1 X71.700 Y121.960 E16.55207
G1 X71.700 Y96.545 E18.13702
G1 X71.859 Y95.331 E18.21337
G1 X71.924 Y94.856 E18.24327
G1 X72.469 Y93.538 E18.33222
G1 X72.653 Y93.096 E18.36207
G1 X73.528 Y91.954 E18.45179
G1 X73.821 Y91.575 E18.48167
G1 X74.950 Y90.710 E18.57037
G1 X74.949 Y90.709 E18.57045
G1 X75.332 Y90.414 E18.60060
G0 F3060 X77.259 Y90.265
G1 F1260 X78.780 Y90.066 E18.69626
G1 X141.176 Y90.060 E22.58745
G1 X142.349 Y90.214 E22.66123
G1 X142.745 Y90.268 E22.68615
G1 X143.992 Y90.783 E22.77029
G1 X144.363 Y90.937 E22.79534
G1 X145.440 Y91.764 E22.88002
G1 X145.756 Y92.008 E22.90492
G1 X146.575 Y93.076 E22.98885
G1 X146.821 Y93.395 E23.01398
G1 X147.341 Y94.650 E23.09869
G1 X147.493 Y95.018 E23.12352
G1 X147.693 Y96.531 E23.21870
G1 X147.700 Y97.794 E23.29747
G1 X147.700 Y122.560 E24.84194
G1 X148.600 Y122.560 E24.89807
G1 X148.600 Y130.360 E25.38450
G1 X137.300 Y130.360 E26.08920
G1 X137.300 Y122.560 E26.57563
G1 X138.300 Y122.560 E26.63799
G1 X138.300 Y100.939 E27.98633
G1 X138.233 Y100.430 E28.01835
G1 X138.104 Y100.118 E28.03940
G1 X137.904 Y99.858 E28.05986
G1 X137.638 Y99.654 E28.08077
G1 X137.330 Y99.527 E28.10154
G1 X136.868 Y99.466 E28.13060
G1 X83.175 Y99.460 E31.47905
G1 X82.670 Y99.526 E31.51081
G1 X82.358 Y99.655 E31.53186
G1 X82.097 Y99.856 E31.55241
G1 X81.894 Y100.120 E31.57318
G1 X81.767 Y100.427 E31.59389
G1 X81.705 Y100.900 E31.62364
G1 X81.700 Y101.653 E31.67060
G1 X81.700 Y122.560 E32.97442
G1 X82.600 Y122.560 E33.03055
G1 X82.600 Y130.360 E33.51698
G1 X71.500 Y130.360 E34.20921
G1 X71.500 Y122.560 E34.69563
G1 X72.300 Y122.560 E34.74553
G1 X72.300 Y96.584 E36.36546
G1 X72.454 Y95.410 E36.43930
G1 X72.508 Y95.014 E36.46423
G1 X73.024 Y93.768 E36.54833
G1 X73.177 Y93.398 E36.57330
G1 X74.004 Y92.320 E36.65803
G1 X74.248 Y92.003 E36.68298
G1 X75.316 Y91.184 E36.76691
G1 X75.635 Y90.938 E36.79203
G1 X76.890 Y90.418 E36.87675
G1 X77.259 Y90.265 E36.90166
G0 F3060 X78.819 Y90.666
G1 F1260 X141.137 Y90.660 E40.78798
G1 X142.269 Y90.809 E40.85919
G1 X142.587 Y90.852 E40.87920
G1 X143.762 Y91.338 E40.95849
G1 X144.060 Y91.461 E40.97860
G1 X145.074 Y92.240 E41.05834
G1 X145.328 Y92.436 E41.07835
G1 X146.099 Y93.442 E41.15739
G1 X146.100 Y93.442 E41.15745
G1 X146.297 Y93.699 E41.17765
G1 X146.786 Y94.879 E41.25731
G1 X146.909 Y95.175 E41.27729
G1 X147.093 Y96.572 E41.36517
G1 X147.100 Y97.795 E41.44144
G1 X147.100 Y123.160 E43.02327
G1 X148.000 Y123.160 E43.07940
G1 X148.000 Y129.760 E43.49099
G1 X137.900 Y129.760 E44.12085
G1 X137.900 Y123.160 E44.53245
G1 X138.900 Y123.160 E44.59481
G1 X138.900 Y100.899 E45.98307
G1 X138.817 Y100.271 E46.02257
G1 X138.630 Y99.819 E46.05308
G1 X138.332 Y99.430 E46.08364
G1 X137.941 Y99.129 E46.11441
G1 X137.488 Y98.942 E46.14497
G1 X136.908 Y98.866 E46.18145
G1 X83.136 Y98.860 E49.53482
G1 X82.511 Y98.942 E49.57413
G1 X82.059 Y99.129 E49.60464
G1 X81.669 Y99.428 E49.63528
G1 X81.369 Y99.820 E49.66607
G1 X81.182 Y100.272 E49.69657
G1 X81.105 Y100.858 E49.73343
G1 X81.100 Y101.649 E49.78276
G1 X81.100 Y123.160 E51.12425
G1 X82.000 Y123.160 E51.18037
G1 X82.000 Y129.760 E51.59197
G1 X72.100 Y129.760 E52.20936
G1 X72.100 Y123.160 E52.62095
G1 X72.900 Y123.160 E52.67084
G1 X72.900 Y96.623 E54.32576
G1 X73.049 Y95.490 E54.39703
G1 X73.092 Y95.172 E54.41704
G1 X73.578 Y93.997 E54.49634
G1 X73.701 Y93.701 E54.51633
G1 X74.479 Y92.686 E54.59608
G1 X74.676 Y92.431 E54.61618
G1 X75.682 Y91.660 E54.69522
G1 X75.682 Y91.659 E54.69528
G1 X75.939 Y91.462 E54.71548
G1 X77.119 Y90.973 E54.79513
G1 X77.416 Y90.850 E54.81518
G1 X78.819 Y90.666 E54.90342
G0 F3060 X78.858 Y91.266
G1 F1260 X141.098 Y91.260 E58.78488
G1 X142.190 Y91.403 E58.85356
G1 X142.429 Y91.436 E58.86861
G1 X143.533 Y91.892 E58.94310
G1 X143.757 Y91.985 E58.95823
G1 X144.708 Y92.715 E59.03299
G1 X144.899 Y92.863 E59.04806
G1 X145.625 Y93.809 E59.12243
G1 X145.774 Y94.002 E59.13763
G1 X146.324 Y95.332 E59.22739
G1 X146.493 Y96.613 E59.30796
G1 X146.500 Y97.797 E59.38180
G1 X146.500 Y123.760 E61.00093
G1 X147.400 Y123.760 E61.05705
G1 X147.400 Y129.160 E61.39381
G1 X138.500 Y129.160 E61.94884
G1 X138.500 Y123.760 E62.28560
G1 X139.500 Y123.760 E62.34796
G1 X139.500 Y100.858 E63.77619
G1 X139.402 Y100.117 E63.82281
G1 X139.153 Y99.515 E63.86343
G1 X138.760 Y99.002 E63.90374
G1 X138.242 Y98.604 E63.94447
G1 X137.643 Y98.357 E63.98488
G1 X136.948 Y98.266 E64.02859
G1 X83.096 Y98.260 E67.38695
G1 X82.357 Y98.357 E67.43343
G1 X81.755 Y98.606 E67.47406
G1 X81.241 Y99.000 E67.51445
G1 X80.845 Y99.517 E67.55506
G1 X80.597 Y100.117 E67.59555
G1 X80.505 Y100.816 E67.63952
G1 X80.500 Y101.645 E67.69122
G1 X80.500 Y123.760 E69.07037
G1 X81.400 Y123.760 E69.12649
G1 X81.400 Y129.160 E69.46325
G1 X72.700 Y129.160 E70.00581
G1 X72.700 Y123.760 E70.34257
G1 X73.500 Y123.760 E70.39246
G1 X73.500 Y96.662 E72.08236
G1 X73.643 Y95.569 E72.15111
G1 X73.676 Y95.329 E72.16622
G1 X74.225 Y94.004 E72.25566
G1 X74.955 Y93.051 E72.33052
G1 X75.103 Y92.860 E72.34559
G1 X76.052 Y92.132 E72.42018
G1 X76.242 Y91.985 E72.43516
G1 X77.573 Y91.434 E72.52500
G1 X78.858 Y91.266 E72.60582
G0 F3060 X78.897 Y91.866
G1 F1260 X141.059 Y91.860 E76.48241
G1 X142.110 Y91.998 E76.54852
G1 X142.272 Y92.020 E76.55871
G1 X143.454 Y92.509 E76.63848
G1 X144.342 Y93.191 E76.70831
G1 X144.471 Y93.290 E76.71845
G1 X145.150 Y94.175 E76.78801
G1 X145.250 Y94.305 E76.79824
G1 X145.740 Y95.489 E76.87815
G1 X145.894 Y96.654 E76.95144
G1 X145.900 Y97.799 E77.02284
G1 X145.900 Y124.360 E78.67926
G1 X146.800 Y124.360 E78.73539
G1 X146.800 Y128.560 E78.99731
G1 X139.100 Y128.560 E79.47750
G1 X139.100 Y124.360 E79.73943
G1 X140.100 Y124.360 E79.80179
G1 X140.100 Y100.817 E81.27000
G1 X139.987 Y99.962 E81.32378
G1 X139.677 Y99.213 E81.37433
G1 X139.186 Y98.573 E81.42464
G1 X138.547 Y98.082 E81.47489
G1 X137.798 Y97.772 E81.52545
G1 X136.988 Y97.666 E81.57639
G1 X83.056 Y97.660 E84.93974
G1 X82.202 Y97.772 E84.99345
G1 X81.453 Y98.082 E85.04400
G1 X80.813 Y98.573 E85.09431
G1 X80.322 Y99.213 E85.14461
G1 X80.012 Y99.961 E85.19511
G1 X79.906 Y100.775 E85.24630
G1 X79.900 Y101.641 E85.30031
G1 X79.900 Y124.360 E86.71713
G1 X80.800 Y124.360 E86.77325
G1 X80.800 Y128.560 E87.03518
G1 X73.300 Y128.560 E87.50290
G1 X73.300 Y124.360 E87.76482
G1 X74.100 Y124.360 E87.81471
G1 X74.100 Y96.701 E89.53960
G1 X74.238 Y95.649 E89.60577
G1 X74.260 Y95.487 E89.61597
G1 X74.749 Y94.306 E89.69568
G1 X75.431 Y93.417 E89.76556
G1 X75.530 Y93.288 E89.77570
G1 X76.415 Y92.609 E89.84526
G1 X76.545 Y92.509 E89.85549
G1 X77.729 Y92.019 E89.93540
G1 X78.897 Y91.866 E90.00886
G0 F3060 X78.936 Y92.466
G1 F1260 X141.020 Y92.460 E93.88059
G1 X142.031 Y92.593 E93.94418
G1 X142.114 Y92.604 E93.94940
G1 X143.151 Y93.033 E94.01939
G1 X144.042 Y93.717 E94.08944
G1 X144.726 Y94.609 E94.15954
G1 X145.155 Y95.646 E94.22953
G1 X145.294 Y96.695 E94.29552
G1 X145.300 Y97.800 E94.36443
G1 X145.300 Y124.960 E96.05820
G1 X146.200 Y124.960 E96.11433
G1 X146.200 Y127.960 E96.30141
G1 X139.700 Y127.960 E96.70677
G1 X139.700 Y124.960 E96.89386
G1 X140.700 Y124.960 E96.95622
G1 X140.700 Y100.776 E98.46440
G1 X140.572 Y99.807 E98.52536
G1 X140.571 Y99.803 E98.52562
G1 X140.202 Y98.912 E98.58576
G1 X139.614 Y98.145 E98.64603
G1 X138.848 Y97.557 E98.70625
G1 X137.956 Y97.188 E98.76645
G1 X137.028 Y97.066 E98.82482
G1 X83.016 Y97.060 E102.19316
G1 X82.049 Y97.187 E102.25398
G1 X82.043 Y97.188 E102.25436
G1 X81.152 Y97.557 E102.31450
G1 X80.385 Y98.145 E102.37477
G1 X79.797 Y98.912 E102.43504
G1 X79.428 Y99.804 E102.49524
G1 X79.306 Y100.733 E102.55367
G1 X79.300 Y101.637 E102.61005
G1 X79.300 Y124.960 E104.06454
G1 X80.200 Y124.960 E104.12066
G1 X80.200 Y127.960 E104.30775
G1 X73.900 Y127.960 E104.70064
G1 X73.900 Y124.960 E104.88773
G1 X74.700 Y124.960 E104.93762
G1 X74.700 Y96.740 E106.69749
G1 X74.833 Y95.728 E106.76115
G1 X74.844 Y95.645 E106.76637
G1 X75.273 Y94.609 E106.83630
G1 X75.957 Y93.717 E106.90640
G1 X76.849 Y93.033 E106.97650
G1 X77.886 Y92.604 E107.04648
G1 X78.936 Y92.466 E107.11253
G0 F3060 X79.006 Y93.466
G0 X79.052 Y94.266
;TYPE:WALL-INNER
G1 F1260 X140.904 Y94.260 E110.96979
G1 X141.643 Y94.357 E111.01627
G1 X142.241 Y94.604 E111.05662
G1 X142.759 Y95.002 E111.09735
G1 X143.154 Y95.517 E111.13783
G1 X143.402 Y96.117 E111.17832
G1 X143.495 Y96.817 E111.22236
G1 X143.500 Y97.801 E111.28372
G1 X143.500 Y123.751 E112.90204
G1 X142.500 Y123.751 E112.96440
G1 X142.500 Y100.661 E114.40435
G1 X142.356 Y99.568 E114.47311
G1 X142.323 Y99.329 E114.48815
G1 X141.774 Y98.004 E114.57759
G1 X141.044 Y97.051 E114.65246
G1 X140.896 Y96.860 E114.66753
G1 X139.949 Y96.132 E114.74202
G1 X139.758 Y95.985 E114.75705
G1 X138.651 Y95.528 E114.83174
G1 X138.427 Y95.435 E114.84686
G1 X137.142 Y95.266 E114.92769
G1 X82.902 Y95.260 E118.31024
G1 X81.809 Y95.403 E118.37899
G1 X81.569 Y95.436 E118.39409
G1 X80.244 Y95.985 E118.48354
G1 X79.291 Y96.715 E118.55840
G1 X79.100 Y96.863 E118.57347
G1 X78.374 Y97.809 E118.64784
G1 X78.225 Y98.002 E118.66304
G1 X77.674 Y99.333 E118.75288
G1 X77.507 Y100.613 E118.83338
G1 X77.500 Y101.630 E118.89680
G1 X77.500 Y123.751 E120.27633
G1 X76.500 Y123.751 E120.33869
G1 X76.500 Y96.856 E122.01594
G1 X76.597 Y96.117 E122.06242
G1 X76.846 Y95.515 E122.10305
G1 X77.240 Y95.001 E122.14344
G1 X77.757 Y94.605 E122.18405
G1 X78.357 Y94.357 E122.22454
G1 X79.052 Y94.266 E122.26825
G0 F3060 X79.012 Y93.666
G1 F1260 X140.944 Y93.660 E126.13050
G1 X141.797 Y93.772 E126.18415
G1 X142.547 Y94.082 E126.23476
G1 X143.186 Y94.572 E126.28498
G1 X143.677 Y95.213 E126.33533
G1 X143.987 Y95.961 E126.38583
G1 X144.094 Y96.776 E126.43709
G1 X144.100 Y97.801 E126.50101
G1 X144.100 Y124.351 E128.15674
G1 X141.900 Y124.351 E128.29394
G1 X141.900 Y100.701 E129.76882
G1 X141.761 Y99.648 E129.83506
G1 X141.739 Y99.487 E129.84519
G1 X141.250 Y98.306 E129.92491
G1 X140.568 Y97.417 E129.99478
G1 X140.469 Y97.289 E130.00487
G1 X139.455 Y96.509 E130.08465
G1 X138.269 Y96.019 E130.16468
G1 X137.103 Y95.866 E130.23802
G1 X82.941 Y95.860 E133.61571
G1 X81.889 Y95.998 E133.68188
G1 X81.727 Y96.020 E133.69207
G1 X80.546 Y96.509 E133.77179
G1 X79.657 Y97.191 E133.84166
G1 X79.528 Y97.290 E133.85180
G1 X78.849 Y98.175 E133.92137
G1 X78.749 Y98.305 E133.93159
G1 X78.259 Y99.489 E134.01150
G1 X78.106 Y100.654 E134.08478
G1 X78.100 Y101.632 E134.14577
G1 X78.100 Y124.351 E135.56259
G1 X75.900 Y124.351 E135.69979
G1 X75.900 Y96.816 E137.41695
G1 X76.012 Y95.962 E137.47066
G1 X76.322 Y95.213 E137.52122
G1 X76.813 Y94.573 E137.57152
G1 X77.453 Y94.082 E137.62182
G1 X78.201 Y93.772 E137.67232
G1 X79.012 Y93.666 E137.72333
G0 F3060 X78.972 Y93.066
;TYPE:WALL-OUTER
G1 F1080 X140.984 Y93.060 E141.59056
G1 X141.950 Y93.187 E141.65133
G1 X142.848 Y93.557 E141.71189
G1 X143.614 Y94.145 E141.77212
G1 X144.202 Y94.912 E141.83239
G1 X144.571 Y95.804 E141.89259
G1 X144.694 Y96.733 E141.95103
G1 X144.700 Y97.801 E142.01763
G1 X144.700 Y124.951 E143.71078
G1 X141.300 Y124.952 E143.92281
G1 X141.300 Y100.740 E145.43274
G1 X141.166 Y99.728 E145.49640
G1 X141.155 Y99.645 E145.50162
G1 X140.726 Y98.609 E145.57155
G1 X140.042 Y97.717 E145.64165
G1 X139.151 Y97.033 E145.71170
G1 X138.113 Y96.604 E145.78174
G1 X137.064 Y96.466 E145.84773
G1 X82.980 Y96.460 E149.22055
G1 X81.968 Y96.593 E149.28421
G1 X81.885 Y96.604 E149.28943
G1 X80.849 Y97.033 E149.35936
G1 X79.957 Y97.717 E149.42946
G1 X79.273 Y98.609 E149.49956
G1 X78.844 Y99.646 E149.56954
G1 X78.706 Y100.695 E149.63552
G1 X78.700 Y101.634 E149.69408
G1 X78.700 Y124.951 E151.14820
G1 X75.300 Y124.952 E151.36023
G1 X75.300 Y96.776 E153.11736
G1 X75.427 Y95.809 E153.17819
G1 X75.797 Y94.912 E153.23870
G1 X76.385 Y94.145 E153.29897
G1 X77.152 Y93.557 E153.35924
G1 X78.044 Y93.188 E153.41944
G1 X78.972 Y93.066 E153.47781
G0 F3060 X78.784 Y94.482
;TYPE:FILL
G1 F1260 X80.138 Y95.836 E153.59722
G0 F3060 X79.658 Y96.204
G1 F1260 X78.108 Y94.654 E153.73392
G0 F3060 X77.575 Y94.970
G1 F1260 X79.178 Y96.573 E153.87530
G0 F3060 X78.763 Y97.006
G1 F1260 X77.158 Y95.401 E154.01685
G0 F3060 X76.859 Y95.951
G1 F1260 X78.394 Y97.485 E154.15219
G0 F3060 X76.707 Y96.648
G1 F1260 X78.039 Y97.980 E154.26966
G0 F3060 X76.680 Y97.469
G1 F1260 X77.791 Y98.580 E154.36764
G0 F3060 X76.680 Y98.317
G1 F1260 X77.543 Y99.180 E154.44376
G0 F3060 X76.680 Y99.166
G1 F1260 X77.049 Y99.959 E154.50885
G1 X77.003 Y100.762 E154.56586
G1 X77.003 Y101.610 E154.62280
G1 X77.003 Y102.459 E154.67972
G1 X77.003 Y103.307 E154.73657
G1 X77.003 Y104.156 E154.79348
G1 X77.002 Y105.003 E154.85035
G1 X77.002 Y105.852 E154.90718
G1 X77.002 Y106.700 E154.96394
G1 X77.002 Y107.549 E155.02069
G1 X77.002 Y108.397 E155.07736
G1 X77.002 Y109.246 E155.13410
G1 X77.002 Y110.094 E155.19077
G1 X77.001 Y110.942 E155.24745
G1 X77.001 Y111.790 E155.30412
G1 X77.001 Y112.639 E155.36068
G1 X77.001 Y113.488 E155.41725
G1 X77.001 Y114.336 E155.47375
G1 X77.001 Y115.184 E155.53024
G1 X77.000 Y116.032 E155.58674
G1 X77.000 Y116.881 E155.64322
G1 X77.000 Y117.729 E155.69971
G1 X77.000 Y118.578 E155.75610
G1 X77.000 Y119.426 E155.81251
G1 X77.000 Y120.274 E155.86892
G1 X77.000 Y121.123 E155.92531
G1 X76.999 Y121.971 E155.98163
G1 X76.999 Y122.819 E156.03786
G1 X77.319 Y123.564 E156.08843
G0 F3060 X78.358 Y99.517
G0 X79.718 Y97.270
G0 X80.736 Y95.585
G1 F1260 X79.596 Y94.445 E156.18897
G0 F3060 X80.444 Y94.445
G1 F1260 X81.335 Y95.336 E156.26755
G0 F3060 X81.293 Y94.445
G1 F1260 X82.090 Y94.818 E156.33340
G1 X82.889 Y94.768 E156.39040
G1 X83.730 Y94.761 E156.44617
G1 X84.579 Y94.761 E156.50194
G1 X85.427 Y94.761 E156.55773
G1 X86.276 Y94.761 E156.61350
G1 X87.124 Y94.761 E156.66929
G1 X87.973 Y94.761 E156.72515
G1 X88.822 Y94.761 E156.78110
G1 X89.670 Y94.761 E156.83707
G1 X90.519 Y94.761 E156.89301
G1 X91.367 Y94.761 E156.94898
G1 X92.216 Y94.761 E157.00493
G1 X93.064 Y94.761 E157.06090
G1 X93.913 Y94.762 E157.11693
G1 X94.762 Y94.762 E157.17296
G1 X95.610 Y94.762 E157.22902
G1 X96.459 Y94.762 E157.28514
G1 X97.307 Y94.762 E157.34120
G1 X98.156 Y94.762 E157.39732
G1 X99.004 Y94.762 E157.45338
G1 X99.853 Y94.762 E157.50950
G1 X100.701 Y94.762 E157.56556
G1 X101.550 Y94.762 E157.62168
G1 X102.398 Y94.762 E157.67774
G1 X103.247 Y94.762 E157.73395
G1 X104.095 Y94.762 E157.79018
G1 X104.944 Y94.762 E157.84639
G1 X105.793 Y94.762 E157.90260
G1 X106.641 Y94.762 E157.95884
G1 X107.490 Y94.762 E158.01505
G1 X108.339 Y94.762 E158.07126
G1 X109.187 Y94.762 E158.12749
G1 X110.035 Y94.761 E158.18372
