;Generated with Cura_SteamEngine 14.09
; Default start code
G28 ; Home extruder
G1 Z5 F500
M107 ; Turn off fan
G90 ; Absolute positioning
M82 ; Extruder in absolute mode
M190 S35
; Activate all used extruder
M104 T0 S195
G92 E0 ; Reset extruder position
; Wait for all used extruders to reach temperature
M109 T0 S195
;Layer count: 80
;LAYER:0
M107
G0 F3060 X72.115 Y81.104 Z0.250
G0 X74.627 Y79.761
;TYPE:SKIRT
G1 F1260 X75.324 Y79.585 E0.04483
G1 X76.115 Y79.469 E0.09469
G1 X142.822 Y79.450 E4.25472
G1 X143.917 Y79.473 E4.32302
G1 X144.677 Y79.586 E4.37094
G1 X145.372 Y79.761 E4.41563
G1 X146.045 Y80.002 E4.46021
G1 X146.693 Y80.308 E4.50490
G1 X147.304 Y80.675 E4.54935
G1 X147.888 Y81.105 E4.59458
G1 X148.417 Y81.589 E4.63929
G1 X148.895 Y82.115 E4.68362
G1 X149.323 Y82.693 E4.72847
G1 X149.691 Y83.306 E4.77306
G1 X149.997 Y83.954 E4.81775
G1 X150.238 Y84.627 E4.86233
G1 X150.414 Y85.324 E4.90716
G1 X150.521 Y86.053 E4.95311
G1 X150.550 Y86.810 E5.00035
G1 X150.550 Y133.067 E7.88507
G1 X150.524 Y133.932 E7.93904
G1 X150.413 Y134.677 E7.98601
G1 X150.238 Y135.372 E8.03070
G1 X149.997 Y136.045 E8.07528
G1 X149.691 Y136.693 E8.11997
G1 X149.324 Y137.304 E8.16442
G1 X148.894 Y137.888 E8.20965
G1 X148.410 Y138.417 E8.25436
G1 X147.884 Y138.895 E8.29869
G1 X147.306 Y139.323 E8.34354
G1 X146.693 Y139.691 E8.38813
G1 X146.045 Y139.997 E8.43282
G1 X145.372 Y140.238 E8.47740
G1 X144.675 Y140.414 E8.52223
G1 X143.884 Y140.530 E8.57209
G1 X77.176 Y140.550 E12.73218
G1 X76.080 Y140.526 E12.80055
G1 X75.322 Y140.413 E12.84834
G1 X74.627 Y140.238 E12.89304
G1 X73.954 Y139.997 E12.93762
G1 X73.306 Y139.691 E12.98231
G1 X72.695 Y139.324 E13.02675
G1 X72.111 Y138.894 E13.07198
G1 X71.582 Y138.410 E13.11670
G1 X71.104 Y137.884 E13.16102
G1 X70.676 Y137.306 E13.20587
G1 X70.308 Y136.693 E13.25046
G1 X70.002 Y136.045 E13.29515
G1 X69.761 Y135.372 E13.33973
G1 X69.585 Y134.675 E13.38456
G1 X69.472 Y133.907 E13.43297
G1 X69.450 Y132.346 E13.53033
G1 X69.450 Y110.750 E14.87712
G1 X68.150 Y110.750 E14.95819
G1 X68.150 Y93.750 E16.01835
G1 X69.450 Y93.750 E16.09943
G1 X69.450 Y86.925 E16.52505
G1 X69.475 Y86.068 E16.57852
G1 X69.586 Y85.322 E16.62555
G1 X69.761 Y84.627 E16.67025
G1 X70.002 Y83.954 E16.71483
G1 X70.308 Y83.306 E16.75952
G1 X70.675 Y82.695 E16.80397
G1 X71.105 Y82.111 E16.84920
G1 X71.589 Y81.582 E16.89391
G1 X72.115 Y81.104 E16.93823
G1 X72.693 Y80.676 E16.98309
G1 X73.306 Y80.308 E17.02767
G1 X73.954 Y80.002 E17.07236
G1 X74.627 Y79.761 E17.11694
G0 F3060 X76.159 Y80.069
G1 F1260 X142.816 Y80.050 E21.27386
G1 X143.867 Y80.072 E21.33942
G1 X144.559 Y80.175 E21.38305
G1 X145.197 Y80.336 E21.42408
G1 X145.815 Y80.557 E21.46501
G1 X146.410 Y80.838 E21.50605
G1 X146.971 Y81.175 E21.54686
G1 X147.506 Y81.570 E21.58833
G1 X147.992 Y82.014 E21.62938
G1 X148.431 Y82.496 E21.67004
G1 X148.824 Y83.027 E21.71124
G1 X149.161 Y83.589 E21.75211
G1 X149.442 Y84.184 E21.79314
G1 X149.663 Y84.802 E21.83407
G1 X149.824 Y85.442 E21.87523
G1 X149.922 Y86.108 E21.91721
G1 X149.950 Y86.822 E21.96177
G1 X149.950 Y133.058 E24.84517
G1 X149.925 Y133.879 E24.89640
G1 X149.824 Y134.559 E24.93927
G1 X149.663 Y135.197 E24.98030
G1 X149.442 Y135.815 E25.02123
G1 X149.161 Y136.410 E25.06227
G1 X148.824 Y136.971 E25.10308
G1 X148.429 Y137.506 E25.14456
G1 X147.985 Y137.992 E25.18561
G1 X147.503 Y138.431 E25.22627
G1 X146.972 Y138.824 E25.26746
G1 X146.410 Y139.161 E25.30833
G1 X145.815 Y139.442 E25.34936
G1 X145.197 Y139.663 E25.39029
G1 X144.557 Y139.824 E25.43145
G1 X143.840 Y139.930 E25.47665
G1 X77.182 Y139.950 E29.63363
G1 X76.131 Y139.927 E29.69919
G1 X75.440 Y139.824 E29.74276
G1 X74.802 Y139.663 E29.78379
G1 X74.184 Y139.442 E29.82472
G1 X73.589 Y139.161 E29.86576
G1 X73.028 Y138.824 E29.90657
G1 X72.493 Y138.429 E29.94804
G1 X72.007 Y137.985 E29.98909
G1 X71.568 Y137.503 E30.02975
G1 X71.175 Y136.972 E30.07095
G1 X70.838 Y136.410 E30.11181
G1 X70.557 Y135.815 E30.15285
G1 X70.336 Y135.197 E30.19378
G1 X70.175 Y134.557 E30.23494
G1 X70.072 Y133.859 E30.27894
G1 X70.050 Y132.341 E30.37361
G1 X70.050 Y110.150 E31.75751
G1 X68.750 Y110.150 E31.83858
G1 X68.750 Y94.350 E32.82391
G1 X70.050 Y94.350 E32.90498
G1 X70.050 Y86.933 E33.36752
G1 X70.074 Y86.121 E33.41819
G1 X70.175 Y85.440 E33.46112
G1 X70.336 Y84.802 E33.50215
G1 X70.557 Y84.184 E33.54308
G1 X70.838 Y83.589 E33.58412
G1 X71.175 Y83.028 E33.62493
G1 X71.570 Y82.493 E33.66640
G1 X72.014 Y82.007 E33.70746
G1 X72.496 Y81.568 E33.74811
G1 X73.027 Y81.175 E33.78931
G1 X73.589 Y80.838 E33.83018
G1 X74.184 Y80.557 E33.87121
G1 X74.802 Y80.336 E33.91214
G1 X75.442 Y80.175 E33.95330
G1 X76.159 Y80.069 E33.99850
G0 F3060 X76.203 Y80.669
G1 F1260 X142.810 Y80.650 E38.15230
G1 X143.816 Y80.671 E38.21505
G1 X144.442 Y80.764 E38.25451
G1 X145.023 Y80.910 E38.29187
G1 X145.585 Y81.112 E38.32912
G1 X146.126 Y81.368 E38.36644
G1 X146.638 Y81.675 E38.40367
G1 X147.125 Y82.034 E38.44140
G1 X147.567 Y82.438 E38.47875
G1 X147.967 Y82.877 E38.51578
G1 X148.324 Y83.360 E38.55324
G1 X148.631 Y83.873 E38.59052
G1 X148.887 Y84.414 E38.62785
G1 X149.089 Y84.976 E38.66509
G1 X149.235 Y85.559 E38.70257
G1 X149.324 Y86.163 E38.74064
G1 X149.350 Y86.833 E38.78246
G1 X149.350 Y133.049 E41.66462
G1 X149.326 Y133.826 E41.71309
G1 X149.235 Y134.442 E41.75193
G1 X149.089 Y135.023 E41.78929
G1 X148.887 Y135.585 E41.82653
G1 X148.631 Y136.126 E41.86385
G1 X148.324 Y136.638 E41.90108
G1 X147.965 Y137.125 E41.93881
G1 X147.561 Y137.567 E41.97616
G1 X147.122 Y137.967 E42.01320
G1 X146.639 Y138.324 E42.05065
G1 X146.126 Y138.631 E42.08794
G1 X145.585 Y138.887 E42.12526
G1 X145.023 Y139.089 E42.16250
G1 X144.440 Y139.235 E42.19998
G1 X143.796 Y139.330 E42.24058
G1 X77.189 Y139.350 E46.39438
G1 X76.182 Y139.328 E46.45719
G1 X75.557 Y139.235 E46.49660
G1 X74.976 Y139.089 E46.53395
G1 X74.414 Y138.887 E46.57120
G1 X73.873 Y138.631 E46.60852
G1 X73.361 Y138.324 E46.64575
G1 X72.874 Y137.965 E46.68348
G1 X72.432 Y137.561 E46.72083
G1 X72.032 Y137.122 E46.75786
G1 X71.675 Y136.639 E46.79532
G1 X71.368 Y136.126 E46.83260
G1 X71.112 Y135.585 E46.86993
G1 X70.910 Y135.023 E46.90717
G1 X70.764 Y134.440 E46.94465
G1 X70.671 Y133.810 E46.98437
G1 X70.650 Y132.337 E47.07624
G1 X70.650 Y109.550 E48.49730
G1 X69.350 Y109.550 E48.57837
G1 X69.350 Y94.950 E49.48886
G1 X70.650 Y94.950 E49.56994
G1 X70.650 Y86.942 E50.06934
G1 X70.673 Y86.174 E50.11725
G1 X70.764 Y85.557 E50.15615
G1 X70.910 Y84.976 E50.19351
G1 X71.112 Y84.414 E50.23075
G1 X71.368 Y83.873 E50.26807
G1 X71.675 Y83.361 E50.30530
G1 X72.034 Y82.874 E50.34303
G1 X72.438 Y82.432 E50.38038
G1 X72.877 Y82.032 E50.41742
G1 X73.360 Y81.675 E50.45487
G1 X73.873 Y81.368 E50.49215
G1 X74.414 Y81.112 E50.52948
G1 X74.976 Y80.910 E50.56672
G1 X75.559 Y80.764 E50.60420
G1 X76.203 Y80.669 E50.64480
G0 F3060 X76.247 Y81.269
G1 F1260 X142.804 Y81.250 E54.79548
G1 X143.765 Y81.270 E54.85542
G1 X144.324 Y81.353 E54.89066
G1 X144.848 Y81.485 E54.92436
G1 X145.355 Y81.667 E54.95796
G1 X145.843 Y81.898 E54.99163
G1 X146.305 Y82.174 E55.02519
G1 X146.743 Y82.498 E55.05916
G1 X147.142 Y82.862 E55.09284
G1 X147.503 Y83.259 E55.12631
G1 X147.824 Y83.693 E55.15997
G1 X148.101 Y84.156 E55.19362
G1 X148.332 Y84.644 E55.22729
G1 X148.514 Y85.151 E55.26088
G1 X148.646 Y85.676 E55.29464
G1 X148.726 Y86.219 E55.32887
G1 X148.750 Y86.845 E55.36794
G1 X148.750 Y133.040 E58.24879
G1 X148.728 Y133.772 E58.29446
G1 X148.646 Y134.324 E58.32926
G1 X148.514 Y134.848 E58.36296
G1 X148.332 Y135.355 E58.39655
G1 X148.101 Y135.843 E58.43022
G1 X147.825 Y136.305 E58.46378
G1 X147.501 Y136.743 E58.49776
G1 X147.137 Y137.142 E58.53144
G1 X146.740 Y137.503 E58.56490
G1 X146.306 Y137.824 E58.59857
G1 X145.843 Y138.101 E58.63221
G1 X145.355 Y138.332 E58.66588
G1 X144.848 Y138.514 E58.69948
G1 X144.323 Y138.646 E58.73324
G1 X143.752 Y138.730 E58.76923
G1 X77.196 Y138.750 E62.91985
G1 X76.233 Y138.729 E62.97992
G1 X75.675 Y138.646 E63.01510
G1 X75.151 Y138.514 E63.04880
G1 X74.644 Y138.332 E63.08239
G1 X74.156 Y138.101 E63.11606
G1 X73.694 Y137.825 E63.14962
G1 X73.256 Y137.501 E63.18360
G1 X72.857 Y137.137 E63.21728
G1 X72.496 Y136.740 E63.25074
G1 X72.175 Y136.306 E63.28441
G1 X71.898 Y135.843 E63.31805
G1 X71.667 Y135.355 E63.35172
G1 X71.485 Y134.848 E63.38532
G1 X71.353 Y134.323 E63.41908
G1 X71.271 Y133.762 E63.45443
G1 X71.250 Y132.333 E63.54356
G1 X71.250 Y108.950 E65.00179
G1 X69.950 Y108.950 E65.08286
G1 X69.950 Y95.550 E65.91852
G1 X71.250 Y95.550 E65.99959
G1 X71.250 Y86.951 E66.53585
G1 X71.271 Y86.227 E66.58102
G1 X71.353 Y85.675 E66.61582
G1 X71.485 Y85.151 E66.64952
G1 X71.667 Y84.644 E66.68311
G1 X71.898 Y84.156 E66.71678
G1 X72.174 Y83.694 E66.75034
G1 X72.498 Y83.256 E66.78432
G1 X72.862 Y82.857 E66.81800
G1 X73.259 Y82.496 E66.85146
G1 X73.693 Y82.175 E66.88513
G1 X74.156 Y81.898 E66.91878
G1 X74.644 Y81.667 E66.95245
G1 X75.151 Y81.485 E66.98604
G1 X75.676 Y81.353 E67.01980
G1 X76.247 Y81.269 E67.05579
G0 F3060 X76.291 Y81.869
G1 F1260 X142.797 Y81.850 E71.20329
G1 X143.715 Y81.869 E71.26055
G1 X144.206 Y81.942 E71.29151
G1 X144.673 Y82.060 E71.32155
G1 X145.125 Y82.222 E71.35149
G1 X145.560 Y82.427 E71.38148
G1 X145.972 Y82.674 E71.41144
G1 X146.361 Y82.962 E71.44162
G1 X146.717 Y83.287 E71.47168
G1 X147.038 Y83.640 E71.50144
G1 X147.325 Y84.027 E71.53148
G1 X147.572 Y84.439 E71.56144
G1 X147.777 Y84.874 E71.59143
G1 X147.939 Y85.326 E71.62137
G1 X148.057 Y85.793 E71.65141
G1 X148.127 Y86.274 E71.68172
G1 X148.150 Y86.857 E71.71811
G1 X148.150 Y133.031 E74.59765
G1 X148.129 Y133.719 E74.64057
G1 X148.057 Y134.206 E74.67127
G1 X147.939 Y134.673 E74.70131
G1 X147.777 Y135.125 E74.73126
G1 X147.572 Y135.560 E74.76125
G1 X147.325 Y135.972 E74.79120
G1 X147.037 Y136.361 E74.82139
G1 X146.712 Y136.717 E74.85145
G1 X146.359 Y137.038 E74.88120
G1 X145.972 Y137.325 E74.91125
G1 X145.560 Y137.572 E74.94121
G1 X145.125 Y137.777 E74.97120
G1 X144.673 Y137.939 E75.00114
G1 X144.206 Y138.057 E75.03118
G1 X143.708 Y138.130 E75.06257
G1 X77.202 Y138.150 E79.21006
G1 X76.284 Y138.130 E79.26733
G1 X75.793 Y138.057 E79.29828
G1 X75.326 Y137.939 E79.32832
G1 X74.874 Y137.777 E79.35827
G1 X74.439 Y137.572 E79.38826
G1 X74.027 Y137.325 E79.41821
G1 X73.638 Y137.037 E79.44840
G1 X73.282 Y136.712 E79.47846
G1 X72.961 Y136.359 E79.50821
G1 X72.674 Y135.972 E79.53826
G1 X72.427 Y135.560 E79.56822
G1 X72.222 Y135.125 E79.59821
G1 X72.060 Y134.673 E79.62815
G1 X71.942 Y134.206 E79.65819
G1 X71.870 Y133.714 E79.68920
G1 X71.850 Y132.328 E79.77564
G1 X71.850 Y108.350 E81.27098
G1 X70.550 Y108.350 E81.35205
G1 X70.550 Y96.150 E82.11287
G1 X71.850 Y96.150 E82.19394
G1 X71.850 Y86.960 E82.76706
G1 X71.870 Y86.280 E82.80948
G1 X71.942 Y85.793 E82.84018
G1 X72.060 Y85.326 E82.87022
G1 X72.222 Y84.874 E82.90017
G1 X72.427 Y84.439 E82.93016
G1 X72.674 Y84.027 E82.96011
G1 X72.962 Y83.638 E82.99030
G1 X73.287 Y83.282 E83.02036
G1 X73.640 Y82.961 E83.05011
G1 X74.027 Y82.674 E83.08016
G1 X74.439 Y82.427 E83.11012
G1 X74.874 Y82.222 E83.14011
G1 X75.326 Y82.060 E83.17005
G1 X75.793 Y81.942 E83.20009
G1 X76.291 Y81.869 E83.23148
G0 F3060 X76.335 Y82.469
G1 F1260 X142.791 Y82.450 E87.37586
G1 X143.664 Y82.468 E87.43031
G1 X144.089 Y82.531 E87.45710
G1 X144.498 Y82.635 E87.48342
G1 X144.895 Y82.777 E87.50972
G1 X145.277 Y82.957 E87.53605
G1 X145.639 Y83.174 E87.56237
G1 X145.980 Y83.426 E87.58881
G1 X146.292 Y83.711 E87.61517
G1 X146.574 Y84.021 E87.64130
G1 X146.825 Y84.360 E87.66761
G1 X147.042 Y84.722 E87.69393
G1 X147.222 Y85.104 E87.72026
G1 X147.364 Y85.501 E87.74656
G1 X147.468 Y85.910 E87.77288
G1 X147.529 Y86.329 E87.79928
G1 X147.550 Y86.868 E87.83292
G1 X147.550 Y133.022 E90.71121
G1 X147.530 Y133.666 E90.75139
G1 X147.468 Y134.089 E90.77805
G1 X147.364 Y134.498 E90.80437
G1 X147.222 Y134.895 E90.83066
G1 X147.042 Y135.277 E90.85700
G1 X146.825 Y135.639 E90.88332
G1 X146.573 Y135.980 E90.90976
G1 X146.288 Y136.292 E90.93612
G1 X145.978 Y136.574 E90.96225
G1 X145.639 Y136.825 E90.98856
G1 X145.277 Y137.042 E91.01488
G1 X144.895 Y137.222 E91.04121
G1 X144.498 Y137.364 E91.06750
G1 X144.089 Y137.468 E91.09382
G1 X143.664 Y137.530 E91.12061
G1 X77.209 Y137.550 E95.26492
G1 X76.335 Y137.531 E95.31944
G1 X75.910 Y137.468 E95.34624
G1 X75.501 Y137.364 E95.37255
G1 X75.104 Y137.222 E95.39885
G1 X74.722 Y137.042 E95.42518
G1 X74.360 Y136.825 E95.45150
G1 X74.019 Y136.573 E95.47795
G1 X73.707 Y136.288 E95.50430
G1 X73.425 Y135.978 E95.53043
G1 X73.174 Y135.639 E95.55674
G1 X72.957 Y135.277 E95.58306
G1 X72.777 Y134.895 E95.60939
G1 X72.635 Y134.498 E95.63569
G1 X72.531 Y134.089 E95.66201
G1 X72.469 Y133.666 E95.68867
G1 X72.450 Y132.324 E95.77237
G1 X72.450 Y107.750 E97.30487
G1 X71.150 Y107.750 E97.38594
G1 X71.150 Y96.750 E98.07193
G1 X72.450 Y96.750 E98.15300
G1 X72.450 Y86.969 E98.76297
G1 X72.469 Y86.333 E98.80265
G1 X72.531 Y85.910 E98.82931
G1 X72.635 Y85.501 E98.85563
G1 X72.777 Y85.104 E98.88193
G1 X72.957 Y84.722 E98.90826
G1 X73.174 Y84.360 E98.93458
G1 X73.426 Y84.019 E98.96102
G1 X73.711 Y83.707 E98.98738
G1 X74.021 Y83.425 E99.01351
G1 X74.360 Y83.174 E99.03982
G1 X74.722 Y82.957 E99.06614
G1 X75.104 Y82.777 E99.09247
G1 X75.501 Y82.635 E99.11877
G1 X75.910 Y82.531 E99.14509
G1 X76.335 Y82.469 E99.17187
G0 F3060 X76.413 Y83.469
G0 X76.466 Y84.269
;TYPE:WALL-INNER
G1 F1260 X142.756 Y84.250 E103.30590
G1 X143.514 Y84.266 E103.35318
G1 X143.735 Y84.299 E103.36711
G1 X144.199 Y84.439 E103.39734
G1 X144.427 Y84.547 E103.41307
G1 X144.639 Y84.674 E103.42848
G1 X145.015 Y84.983 E103.45883
G1 X145.181 Y85.165 E103.47420
G1 X145.324 Y85.359 E103.48923
G1 X145.452 Y85.572 E103.50472
G1 X145.560 Y85.800 E103.52046
G1 X145.701 Y86.266 E103.55082
G1 X145.734 Y86.494 E103.56519
G1 X145.750 Y133.017 E106.46649
G1 X145.735 Y133.501 E106.49669
G1 X145.638 Y133.981 E106.52723
G1 X145.560 Y134.199 E106.54166
G1 X145.452 Y134.427 E106.55740
G1 X145.325 Y134.639 E106.57281
G1 X145.016 Y135.015 E106.60316
G1 X144.834 Y135.181 E106.61852
G1 X144.640 Y135.324 E106.63355
G1 X144.427 Y135.452 E106.64905
G1 X144.199 Y135.560 E106.66478
G1 X143.733 Y135.701 E106.69514
G1 X143.533 Y135.730 E106.70775
G1 X77.245 Y135.750 E110.84165
G1 X76.486 Y135.733 E110.88899
G1 X76.264 Y135.700 E110.90299
G1 X75.800 Y135.560 E110.93322
G1 X75.572 Y135.452 E110.94895
G1 X75.360 Y135.325 E110.96436
G1 X74.984 Y135.016 E110.99471
G1 X74.818 Y134.834 E111.01007
G1 X74.675 Y134.640 E111.02510
G1 X74.547 Y134.427 E111.04060
G1 X74.439 Y134.199 E111.05633
G1 X74.298 Y133.733 E111.08670
G1 X74.268 Y133.523 E111.09993
G1 X74.250 Y132.322 E111.17483
G1 X74.250 Y86.973 E114.00292
G1 X74.264 Y86.497 E114.03262
G1 X74.361 Y86.018 E114.06310
G1 X74.439 Y85.800 E114.07753
G1 X74.547 Y85.572 E114.09327
G1 X74.674 Y85.360 E114.10868
G1 X74.983 Y84.984 E114.13903
G1 X75.165 Y84.818 E114.15439
G1 X75.359 Y84.675 E114.16942
G1 X75.572 Y84.547 E114.18492
G1 X75.800 Y84.439 E114.20065
G1 X76.266 Y84.298 E114.23102
G1 X76.466 Y84.269 E114.24362
G0 F3060 X76.420 Y83.669
G1 F1260 X142.769 Y83.650 E118.38132
G1 X143.567 Y83.667 E118.43110
G1 X143.848 Y83.709 E118.44882
G1 X144.156 Y83.786 E118.46862
G1 X144.427 Y83.883 E118.48657
G1 X144.712 Y84.018 E118.50624
G1 X144.972 Y84.174 E118.52514
G1 X145.221 Y84.358 E118.54445
G1 X145.435 Y84.553 E118.56251
G1 X145.647 Y84.786 E118.58215
G1 X145.825 Y85.027 E118.60084
G1 X145.981 Y85.287 E118.61975
G1 X146.116 Y85.572 E118.63941
G1 X146.291 Y86.152 E118.67719
G1 X146.333 Y86.439 E118.69528
G1 X146.350 Y132.990 E121.59833
G1 X146.332 Y133.565 E121.63421
G1 X146.290 Y133.848 E121.65205
G1 X146.213 Y134.156 E121.67185
G1 X146.116 Y134.427 E121.68980
G1 X145.981 Y134.712 E121.70947
G1 X145.825 Y134.972 E121.72837
G1 X145.641 Y135.221 E121.74768
G1 X145.446 Y135.435 E121.76574
G1 X145.213 Y135.647 E121.78538
G1 X144.972 Y135.825 E121.80407
G1 X144.712 Y135.981 E121.82298
G1 X144.427 Y136.116 E121.84264
G1 X143.847 Y136.291 E121.88042
G1 X143.579 Y136.330 E121.89731
G1 X77.232 Y136.350 E126.03489
G1 X76.432 Y136.332 E126.08480
G1 X76.151 Y136.290 E126.10252
G1 X75.843 Y136.213 E126.12231
G1 X75.572 Y136.116 E126.14026
G1 X75.287 Y135.981 E126.15993
