;Generated with Cura_SteamEngine 14.09
; Default start code
G28 ; Home extruder
G1 Z5 F500
M107 ; Turn off fan
G90 ; Absolute positioning
M82 ; Extruder in absolute mode
M190 S35
; Activate all used extruder
M104 T0 S195
G92 E0 ; Reset extruder position
; Wait for all used extruders to reach temperature
M109 T0 S195
;Layer count: 32
;LAYER:0
M107
G0 F3060 X71.569 Y82.566 Z0.250
G0 X73.084 Y81.403
;TYPE:SKIRT
G1 F1260 X74.396 Y80.860 E0.08855
G1 X74.860 Y80.670 E0.11982
G1 X76.470 Y80.459 E0.22108
G1 X143.465 Y80.450 E4.39907
G1 X144.661 Y80.607 E4.47430
G1 X145.156 Y80.675 E4.50546
G1 X146.440 Y81.206 E4.59211
G1 X146.910 Y81.399 E4.62380
G1 X148.037 Y82.265 E4.71243
G1 X148.433 Y82.569 E4.74357
G1 X149.289 Y83.687 E4.83138
G1 X149.290 Y83.686 E4.83146
G1 X149.596 Y84.084 E4.86277
G1 X150.139 Y85.396 E4.95132
G1 X150.329 Y85.858 E4.98248
G1 X150.541 Y87.467 E5.08369
G1 X150.550 Y99.467 E5.83204
G1 X150.550 Y103.550 E6.08667
G1 X149.350 Y103.550 E6.16150
G1 X149.350 Y134.831 E8.11227
G1 X149.150 Y135.031 E8.12991
G1 X149.150 Y135.431 E8.15485
G1 X148.950 Y135.631 E8.17249
G1 X148.950 Y135.831 E8.18497
G1 X148.750 Y136.031 E8.20260
G1 X148.750 Y136.231 E8.21508
G1 X145.997 Y138.984 E8.45788
G1 X144.300 Y139.832 E8.57618
G1 X142.748 Y140.350 E8.67822
G1 X78.394 Y140.350 E12.69151
G1 X76.205 Y139.986 E12.82990
G1 X74.203 Y138.984 E12.96951
G1 X74.003 Y138.784 E12.98715
G1 X71.450 Y137.508 E13.16514
G1 X71.450 Y136.431 E13.23231
G1 X70.850 Y135.831 E13.28522
G1 X70.850 Y135.431 E13.31017
G1 X70.650 Y135.231 E13.32781
G1 X70.650 Y135.031 E13.34028
G1 X70.450 Y134.831 E13.35792
G1 X70.450 Y103.550 E15.30869
G1 X69.450 Y103.550 E15.37105
G1 X69.450 Y87.535 E16.36979
G1 X69.606 Y86.339 E16.44501
G1 X69.675 Y85.842 E16.47630
G1 X70.211 Y84.548 E16.56365
G1 X70.399 Y84.091 E16.59446
G1 X71.264 Y82.963 E16.68311
G1 X71.569 Y82.566 E16.71433
G1 X72.687 Y81.710 E16.80214
G1 X72.686 Y81.709 E16.80223
G1 X73.084 Y81.403 E16.83354
G0 F3060 X75.015 Y81.254
G1 F1260 X76.509 Y81.059 E16.92750
G1 X143.426 Y81.050 E21.10063
G1 X144.580 Y81.201 E21.17321
G1 X144.998 Y81.259 E21.19952
G1 X146.221 Y81.765 E21.28206
G1 X146.608 Y81.924 E21.30816
G1 X147.671 Y82.740 E21.39173
G1 X148.005 Y82.997 E21.41801
G1 X148.814 Y84.052 E21.50092
G1 X149.072 Y84.387 E21.52729
G1 X149.584 Y85.624 E21.61078
G1 X149.744 Y86.014 E21.63707
G1 X149.941 Y87.507 E21.73098
G1 X149.950 Y99.467 E22.47684
G1 X149.950 Y102.950 E22.69405
G1 X148.750 Y102.950 E22.76888
G1 X148.750 Y134.582 E24.74154
G1 X148.550 Y134.782 E24.75918
G1 X148.550 Y135.182 E24.78413
G1 X148.350 Y135.382 E24.80177
G1 X148.350 Y135.582 E24.81424
G1 X148.150 Y135.782 E24.83188
G1 X148.150 Y135.982 E24.84435
G1 X145.641 Y138.491 E25.06563
G1 X144.070 Y139.277 E25.17518
G1 X142.650 Y139.750 E25.26852
G1 X78.444 Y139.750 E29.27258
G1 X76.392 Y139.409 E29.40230
G1 X74.558 Y138.491 E29.53021
G1 X74.357 Y138.290 E29.54793
G1 X72.050 Y137.137 E29.70877
G1 X72.050 Y136.182 E29.76833
G1 X71.450 Y135.582 E29.82124
G1 X71.450 Y135.182 E29.84619
G1 X71.250 Y134.982 E29.86383
G1 X71.250 Y134.782 E29.87630
G1 X71.050 Y134.582 E29.89394
G1 X71.050 Y102.950 E31.86660
G1 X70.050 Y102.950 E31.92896
G1 X70.050 Y87.574 E32.88785
G1 X70.201 Y86.419 E32.96049
G1 X70.259 Y86.001 E32.98681
G1 X70.765 Y84.778 E33.06935
G1 X70.766 Y84.778 E33.06941
G1 X70.923 Y84.393 E33.09534
G1 X71.740 Y83.328 E33.17905
G1 X71.997 Y82.994 E33.20533
G1 X73.055 Y82.183 E33.28847
G1 X73.387 Y81.927 E33.31461
G1 X74.624 Y81.415 E33.39810
G1 X75.015 Y81.254 E33.42447
G0 F3060 X76.548 Y81.659
G1 F1260 X143.387 Y81.650 E37.59273
G1 X144.500 Y81.796 E37.66274
G1 X144.839 Y81.843 E37.68408
G1 X145.985 Y82.317 E37.76142
G1 X146.306 Y82.448 E37.78304
G1 X147.306 Y83.216 E37.86167
G1 X147.577 Y83.424 E37.88298
G1 X148.339 Y84.418 E37.96109
G1 X148.548 Y84.690 E37.98248
G1 X149.030 Y85.853 E38.06099
G1 X149.159 Y86.170 E38.08233
G1 X149.341 Y87.546 E38.16889
G1 X149.350 Y99.467 E38.91232
G1 X149.350 Y102.350 E39.09211
G1 X148.150 Y102.350 E39.16694
G1 X148.150 Y134.334 E41.16155
G1 X147.950 Y134.534 E41.17919
G1 X147.950 Y134.934 E41.20414
G1 X147.750 Y135.134 E41.22178
G1 X147.750 Y135.334 E41.23425
G1 X147.550 Y135.534 E41.25189
G1 X147.550 Y135.734 E41.26436
G1 X145.286 Y137.998 E41.46403
G1 X143.840 Y138.721 E41.56485
G1 X142.553 Y139.150 E41.64946
G1 X78.493 Y139.150 E45.64441
G1 X76.580 Y138.832 E45.76535
G1 X74.914 Y137.998 E45.88154
G1 X74.714 Y137.798 E45.89918
G1 X72.650 Y136.766 E46.04309
G1 X72.650 Y135.934 E46.09497
G1 X72.050 Y135.334 E46.14789
G1 X72.050 Y134.934 E46.17283
G1 X71.850 Y134.734 E46.19047
G1 X71.850 Y134.534 E46.20295
G1 X71.650 Y134.334 E46.22058
G1 X71.650 Y102.350 E48.21519
G1 X70.650 Y102.350 E48.27756
G1 X70.650 Y87.613 E49.19660
G1 X70.796 Y86.499 E49.26666
G1 X70.843 Y86.159 E49.28807
G1 X71.320 Y85.007 E49.36583
G1 X71.448 Y84.694 E49.38691
G1 X72.216 Y83.694 E49.46555
G1 X72.424 Y83.422 E49.48690
G1 X73.418 Y82.660 E49.56501
G1 X73.690 Y82.451 E49.58640
G1 X74.853 Y81.969 E49.66491
G1 X75.171 Y81.839 E49.68633
G1 X76.548 Y81.659 E49.77294
G0 F3060 X76.587 Y82.259
G1 F1260 X143.348 Y82.250 E53.93634
G1 X144.420 Y82.390 E54.00376
G1 X144.681 Y82.427 E54.02020
G1 X145.758 Y82.872 E54.09287
G1 X146.005 Y82.973 E54.10951
G1 X146.940 Y83.692 E54.18307
G1 X147.148 Y83.852 E54.19943
G1 X147.863 Y84.783 E54.27264
G1 X148.024 Y84.993 E54.28914
G1 X148.475 Y86.082 E54.36265
G1 X148.575 Y86.325 E54.37903
G1 X148.741 Y87.586 E54.45835
G1 X148.750 Y99.467 E55.19928
G1 X148.750 Y101.750 E55.34166
G1 X147.550 Y101.750 E55.41649
G1 X147.550 Y134.085 E57.43299
G1 X147.350 Y134.285 E57.45063
G1 X147.350 Y134.685 E57.47558
G1 X147.150 Y134.885 E57.49322
G1 X147.150 Y135.085 E57.50569
G1 X146.950 Y135.285 E57.52333
G1 X146.950 Y135.485 E57.53580
G1 X144.931 Y137.505 E57.71391
G1 X143.609 Y138.165 E57.80606
G1 X142.455 Y138.550 E57.88192
G1 X78.543 Y138.550 E61.86765
G1 X76.768 Y138.255 E61.97986
G1 X75.269 Y137.505 E62.08439
G1 X75.067 Y137.303 E62.10221
G1 X73.250 Y136.395 E62.22888
G1 X73.250 Y135.686 E62.27310
G1 X72.650 Y135.085 E62.32606
G1 X72.650 Y134.685 E62.35100
G1 X72.450 Y134.485 E62.36864
G1 X72.450 Y134.285 E62.38111
G1 X72.250 Y134.085 E62.39875
G1 X72.250 Y101.750 E64.41525
G1 X71.250 Y101.750 E64.47761
G1 X71.250 Y87.652 E65.35680
G1 X71.390 Y86.579 E65.42429
G1 X71.427 Y86.318 E65.44073
G1 X71.874 Y85.237 E65.51368
G1 X71.973 Y84.996 E65.52992
G1 X72.691 Y84.059 E65.60354
G1 X72.852 Y83.851 E65.61995
G1 X73.783 Y83.136 E65.69315
G1 X73.993 Y82.975 E65.70965
G1 X75.082 Y82.524 E65.78316
G1 X75.326 Y82.424 E65.79960
G1 X76.587 Y82.259 E65.87891
G0 F3060 X76.626 Y82.859
G1 F1260 X143.309 Y82.850 E70.03745
G1 X144.340 Y82.985 E70.10230
G1 X144.523 Y83.010 E70.11381
G1 X145.533 Y83.428 E70.18198
G1 X145.703 Y83.498 E70.19345
G1 X146.720 Y84.279 E70.27341
G1 X147.387 Y85.149 E70.34178
G1 X147.500 Y85.296 E70.35334
G1 X147.920 Y86.310 E70.42179
G1 X147.990 Y86.481 E70.43331
G1 X148.141 Y87.626 E70.50533
G1 X148.151 Y101.150 E71.34873
G1 X146.950 Y101.150 E71.42363
G1 X146.950 Y133.837 E73.46208
G1 X146.750 Y134.037 E73.47972
G1 X146.750 Y134.437 E73.50466
G1 X146.550 Y134.637 E73.52230
G1 X146.550 Y134.837 E73.53477
G1 X146.350 Y135.037 E73.55241
G1 X146.350 Y135.237 E73.56488
G1 X144.575 Y137.012 E73.72143
G1 X143.379 Y137.610 E73.80482
G1 X142.358 Y137.950 E73.87193
G1 X78.593 Y137.950 E77.84849
G1 X76.955 Y137.678 E77.95204
G1 X75.625 Y137.012 E78.04480
G1 X75.424 Y136.811 E78.06253
G1 X73.850 Y136.024 E78.17227
G1 X73.850 Y135.436 E78.20894
G1 X73.250 Y134.837 E78.26181
G1 X73.250 Y134.437 E78.28676
G1 X73.050 Y134.237 E78.30440
G1 X73.050 Y134.037 E78.31687
G1 X72.850 Y133.837 E78.33451
G1 X72.850 Y101.150 E80.37296
G1 X71.850 Y101.150 E80.43532
G1 X71.850 Y87.691 E81.27466
G1 X71.985 Y86.659 E81.33957
G1 X72.010 Y86.476 E81.35109
G1 X72.428 Y85.467 E81.41920
G1 X72.498 Y85.298 E81.43060
G1 X73.167 Y84.425 E81.49919
G1 X73.280 Y84.279 E81.51071
G1 X74.150 Y83.611 E81.57911
G1 X74.296 Y83.499 E81.59059
G1 X75.310 Y83.079 E81.65903
G1 X75.481 Y83.009 E81.67056
G1 X76.626 Y82.859 E81.74257
G0 F3060 X76.665 Y83.459
G1 F1260 X143.270 Y83.450 E85.89624
G1 X144.260 Y83.580 E85.95851
G1 X144.364 Y83.594 E85.96506
G1 X145.401 Y84.023 E86.03504
G1 X146.292 Y84.707 E86.10509
G1 X146.976 Y85.599 E86.17519
G1 X147.365 Y86.539 E86.23863
G1 X147.405 Y86.636 E86.24518
G1 X147.541 Y87.665 E86.30991
G1 X147.550 Y100.550 E87.11345
G1 X146.350 Y100.550 E87.18829
G1 X146.350 Y133.588 E89.24863
G1 X146.150 Y133.788 E89.26627
G1 X146.150 Y134.188 E89.29121
G1 X145.950 Y134.388 E89.30885
G1 X145.950 Y134.588 E89.32132
G1 X145.750 Y134.788 E89.33896
G1 X145.750 Y134.988 E89.35143
G1 X144.220 Y136.519 E89.48642
G1 X143.149 Y137.054 E89.56108
G1 X142.261 Y137.350 E89.61945
G1 X78.642 Y137.350 E93.58690
G1 X77.143 Y137.101 E93.68167
G1 X75.980 Y136.519 E93.76277
G1 X75.779 Y136.317 E93.78054
G1 X74.450 Y135.653 E93.87319
G1 X74.450 Y135.188 E93.90219
G1 X73.850 Y134.588 E93.95511
G1 X73.850 Y134.188 E93.98005
G1 X73.650 Y133.988 E93.99769
G1 X73.650 Y133.788 E94.01016
G1 X73.450 Y133.588 E94.02780
G1 X73.450 Y100.550 E96.08814
G1 X72.450 Y100.550 E96.15050
G1 X72.450 Y87.730 E96.94999
G1 X72.580 Y86.739 E97.01233
G1 X72.594 Y86.635 E97.01887
G1 X72.983 Y85.697 E97.08220
G1 X72.982 Y85.697 E97.08226
G1 X73.023 Y85.599 E97.08888
G1 X73.707 Y84.707 E97.15898
G1 X74.599 Y84.023 E97.22908
G1 X75.539 Y83.634 E97.29253
G1 X75.636 Y83.594 E97.29907
G1 X76.665 Y83.459 E97.36379
G0 F3060 X76.735 Y84.459
G0 X76.781 Y85.259
;TYPE:WALL-INNER
G1 F1260 X143.154 Y85.250 E101.50299
G1 X143.892 Y85.347 E101.54941
G1 X144.492 Y85.595 E101.58990
G1 X145.009 Y85.992 E101.63055
G1 X145.404 Y86.508 E101.67108
G1 X145.652 Y87.106 E101.71145
G1 X145.741 Y87.783 E101.75403
G1 X145.749 Y98.750 E102.43796
G1 X139.000 Y98.750 E102.85885
G1 X139.000 Y127.162 E104.63070
G1 X138.902 Y127.896 E104.67688
G1 X138.660 Y128.483 E104.71648
G1 X138.264 Y129.002 E104.75719
G1 X137.747 Y129.403 E104.79799
G1 X137.145 Y129.652 E104.83862
G1 X136.414 Y129.749 E104.88461
G1 X83.588 Y129.750 E108.17898
G1 X82.866 Y129.654 E108.22440
G1 X82.249 Y129.401 E108.26599
G1 X81.755 Y129.021 E108.30486
G1 X81.356 Y128.508 E108.34539
G1 X81.096 Y127.890 E108.38720
G1 X81.001 Y127.165 E108.43280
G1 X81.000 Y126.262 E108.48911
G1 X81.000 Y98.750 E110.20484
G1 X74.250 Y98.750 E110.62579
G1 X74.250 Y87.846 E111.30579
G1 X74.346 Y87.108 E111.35220
G1 X74.596 Y86.505 E111.39291
G1 X74.990 Y85.991 E111.43330
G1 X75.508 Y85.595 E111.47396
G1 X76.106 Y85.347 E111.51433
G1 X76.781 Y85.259 E111.55678
G0 F3060 X76.741 Y84.659
G1 F1260 X143.194 Y84.650 E115.70098
G1 X144.047 Y84.762 E115.75463
G1 X144.796 Y85.071 E115.80516
G1 X145.436 Y85.563 E115.85550
G1 X145.927 Y86.203 E115.90580
G1 X146.237 Y86.950 E115.95624
G1 X146.341 Y87.743 E116.00612
G1 X146.349 Y99.350 E116.72996
G1 X139.600 Y99.350 E117.15085
G1 X139.600 Y127.203 E118.88784
G1 X139.487 Y128.050 E118.94113
G1 X139.183 Y128.786 E118.99079
G1 X138.695 Y129.426 E119.04098
G1 X138.050 Y129.927 E119.09191
G1 X137.301 Y130.237 E119.14246
G1 X136.455 Y130.349 E119.19568
G1 X83.547 Y130.350 E122.49517
G1 X82.710 Y130.239 E122.54783
G1 X81.948 Y129.926 E122.59920
G1 X81.327 Y129.449 E122.64803
G1 X80.834 Y128.814 E122.69817
G1 X80.512 Y128.048 E122.74999
G1 X80.401 Y127.206 E122.80295
G1 X80.399 Y99.350 E124.54013
G1 X73.650 Y99.350 E124.96101
G1 X73.650 Y87.803 E125.68112
G1 X73.762 Y86.953 E125.73458
G1 X74.072 Y86.203 E125.78519
G1 X74.563 Y85.563 E125.83550
G1 X75.203 Y85.072 E125.88580
G1 X75.950 Y84.762 E125.93624
G1 X76.741 Y84.659 E125.98598
G0 F3060 X76.701 Y84.059
;TYPE:WALL-OUTER
G1 F1080 X143.234 Y84.050 E130.13517
G1 X144.179 Y84.174 E130.19460
G1 X144.205 Y84.178 E130.19624
G1 X145.098 Y84.547 E130.25650
G1 X145.864 Y85.135 E130.31672
G1 X146.452 Y85.902 E130.37699
G1 X146.811 Y86.767 E130.43540
G1 X146.822 Y86.795 E130.43727
G1 X146.941 Y87.701 E130.49426
G1 X146.950 Y99.950 E131.25814
G1 X140.200 Y99.950 E131.67909
G1 X140.200 Y127.245 E133.38128
G1 X140.072 Y128.208 E133.44186
G1 X139.708 Y129.087 E133.50120
G1 X139.124 Y129.853 E133.56127
G1 X138.353 Y130.451 E133.62211
G1 X137.458 Y130.821 E133.68251
G1 X136.497 Y130.949 E133.74297
G1 X83.505 Y130.950 E137.04770
G1 X82.555 Y130.823 E137.10747
G1 X81.647 Y130.451 E137.16866
G1 X80.900 Y129.877 E137.22741
G1 X80.312 Y129.120 E137.28719
G1 X79.927 Y128.206 E137.34904
G1 X79.801 Y127.247 E137.40936
G1 X79.800 Y99.950 E139.11168
G1 X73.050 Y99.950 E139.53262
G1 X73.050 Y87.766 E140.29245
G1 X73.174 Y86.820 E140.35195
G1 X73.178 Y86.794 E140.35359
G1 X73.537 Y85.925 E140.41223
G1 X73.547 Y85.902 E140.41379
G1 X74.135 Y85.135 E140.47406
G1 X74.902 Y84.547 E140.53433
G1 X75.767 Y84.188 E140.59274
G1 X75.795 Y84.177 E140.59461
G1 X76.701 Y84.059 E140.65159
G0 F3060 X76.559 Y85.468
;TYPE:FILL
G1 F1260 X120.659 Y129.568 E144.54096
G0 F3060 X121.507 Y129.568
G1 F1260 X77.377 Y85.438 E148.43297
G0 F3060 X78.225 Y85.438
G1 F1260 X122.356 Y129.568 E152.32503
G0 F3060 X123.204 Y129.568
G1 F1260 X79.074 Y85.438 E156.21704
G0 F3060 X79.922 Y85.438
G1 F1260 X124.053 Y129.568 E160.10910
G0 F3060 X124.901 Y129.568
G1 F1260 X80.771 Y85.438 E164.00111
G0 F3060 X81.619 Y85.438
G1 F1260 X125.750 Y129.568 E167.89317
G0 F3060 X126.598 Y129.568
G1 F1260 X82.467 Y85.437 E171.78527
G0 F3060 X83.316 Y85.437
G1 F1260 X127.447 Y129.568 E175.67737
G0 F3060 X128.296 Y129.568
G1 F1260 X84.164 Y85.437 E179.56951
G0 F3060 X85.013 Y85.437
G1 F1260 X129.144 Y129.568 E183.46161
G0 F3060 X129.993 Y129.568
G1 F1260 X85.861 Y85.437 E187.35376
G0 F3060 X86.710 Y85.437
G1 F1260 X130.841 Y129.568 E191.24586
G0 F3060 X131.690 Y129.568
G1 F1260 X87.558 Y85.437 E195.13800
G0 F3060 X88.406 Y85.436
G1 F1260 X132.538 Y129.568 E199.03019
G0 F3060 X133.387 Y129.568
G1 F1260 X89.255 Y85.436 E202.92238
G0 F3060 X90.103 Y85.436
G1 F1260 X134.235 Y129.568 E206.81457
G0 F3060 X135.084 Y129.568
G1 F1260 X90.952 Y85.436 E210.70676
G0 F3060 X91.800 Y85.436
G1 F1260 X135.932 Y129.568 E214.59894
G0 F3060 X136.736 Y129.524
G1 F1260 X92.649 Y85.436 E218.48721
G0 F3060 X93.497 Y85.436
G1 F1260 X137.408 Y129.347 E222.35991
G0 F3060 X137.936 Y129.027
G1 F1260 X94.345 Y85.436 E226.20438
G0 F3060 X95.194 Y85.436
G1 F1260 X138.349 Y128.591 E230.01040
G0 F3060 X138.647 Y128.040
G1 F1260 X96.042 Y85.436 E233.76788
G0 F3060 X96.891 Y85.436
G1 F1260 X138.794 Y127.339 E237.46348
G0 F3060 X138.819 Y126.516
G1 F1260 X97.739 Y85.436 E241.08650
G0 F3060 X98.588 Y85.436
G1 F1260 X138.819 Y125.667 E244.63464
G0 F3060 X138.819 Y124.819
G1 F1260 X99.436 Y85.435 E248.10804
G0 F3060 X100.284 Y85.435
G1 F1260 X138.819 Y123.970 E251.50661
G0 F3060 X138.819 Y123.122
G1 F1260 X101.133 Y85.435 E254.83034
G0 F3060 X101.981 Y85.435
G1 F1260 X138.819 Y122.273 E258.07924
G0 F3060 X138.819 Y121.425
G1 F1260 X102.830 Y85.435 E261.25331
G0 F3060 X103.678 Y85.435
G1 F1260 X138.819 Y120.576 E264.35254
G0 F3060 X138.819 Y119.728
G1 F1260 X104.526 Y85.434 E267.37703
G0 F3060 X105.375 Y85.434
G1 F1260 X138.819 Y118.879 E270.32664
G0 F3060 X138.819 Y118.030
G1 F1260 X106.223 Y85.434 E273.20142
G0 F3060 X107.072 Y85.434
G1 F1260 X138.819 Y117.182 E276.00137
G0 F3060 X138.819 Y116.333
G1 F1260 X107.920 Y85.434 E278.72648
G0 F3060 X108.769 Y85.434
G1 F1260 X138.819 Y115.485 E281.37677
G0 F3060 X138.819 Y114.636
G1 F1260 X109.617 Y85.434 E283.95221
G0 F3060 X110.465 Y85.434
G1 F1260 X138.819 Y113.788 E286.45287
G0 F3060 X138.819 Y112.939
G1 F1260 X111.314 Y85.434 E288.87866
G0 F3060 X112.162 Y85.434
G1 F1260 X138.819 Y112.091 E291.22965
G0 F3060 X138.819 Y111.242
G1 F1260 X113.011 Y85.434 E293.50577
G0 F3060 X113.859 Y85.434
G1 F1260 X138.819 Y110.394 E295.70710
G0 F3060 X138.819 Y109.545
G1 F1260 X114.708 Y85.434 E297.83355
G0 F3060 X115.556 Y85.433
G1 F1260 X138.819 Y108.697 E299.88525
G0 F3060 X138.819 Y107.848
G1 F1260 X116.404 Y85.433 E301.86213
G0 F3060 X117.253 Y85.433
G1 F1260 X138.819 Y107.000 E303.76417
G0 F3060 X138.819 Y106.151
G1 F1260 X118.101 Y85.433 E305.59138
G0 F3060 X118.950 Y85.433
G1 F1260 X138.819 Y105.303 E307.34375
G0 F3060 X138.819 Y104.454
