;Generated with Cura_SteamEngine 14.09
; Default start code
G28 ; Home extruder
G1 Z5 F500
M107 ; Turn off fan
G90 ; Absolute positioning
M82 ; Extruder in absolute mode
M190 S35
; Activate all used extruder
M104 T0 S195
G92 E0 ; Reset extruder position
; Wait for all used extruders to reach temperature
M109 T0 S195
;Layer count: 38
;LAYER:0
M107
G0 F3060 X67.997 Y68.071 Z0.250
G0 X69.511 Y66.907
;TYPE:SKIRT
G1 F1260 X70.824 Y66.364 E0.08861
G1 X71.288 Y66.174 E0.11988
G1 X72.897 Y65.963 E0.22108
G1 X141.892 Y65.954 E4.52380
G1 X143.088 Y66.110 E4.59901
G1 X143.585 Y66.179 E4.63030
G1 X144.867 Y66.710 E4.71684
G1 X145.336 Y66.903 E4.74847
G1 X146.464 Y67.768 E4.83712
G1 X146.862 Y68.074 E4.86842
G1 X147.717 Y69.190 E4.95610
G1 X148.022 Y69.587 E4.98732
G1 X148.567 Y70.898 E5.07586
G1 X148.757 Y71.364 E5.10724
G1 X148.968 Y72.973 E5.20844
G1 X148.977 Y85.909 E6.01517
G1 X148.977 Y90.054 E6.27366
G1 X146.777 Y90.054 E6.41086
G1 X146.777 Y121.335 E8.36163
G1 X146.577 Y121.535 E8.37927
G1 X146.577 Y121.935 E8.40421
G1 X146.377 Y122.135 E8.42185
G1 X146.377 Y122.335 E8.43433
G1 X146.177 Y122.535 E8.45196
G1 X146.177 Y122.735 E8.46444
G1 X143.424 Y125.488 E8.70724
G1 X141.727 Y126.336 E8.82554
G1 X140.175 Y126.854 E8.92758
G1 X75.821 Y126.854 E12.94087
G1 X73.632 Y126.490 E13.07926
G1 X71.630 Y125.488 E13.21887
G1 X71.430 Y125.288 E13.23651
G1 X68.877 Y124.012 E13.41450
G1 X68.877 Y122.935 E13.48167
G1 X68.277 Y122.335 E13.53458
G1 X68.277 Y121.935 E13.55953
G1 X68.077 Y121.735 E13.57717
G1 X68.077 Y121.535 E13.58964
G1 X67.877 Y121.335 E13.60728
G1 X67.877 Y90.054 E15.55805
G1 X65.877 Y90.054 E15.68277
G1 X65.877 Y73.037 E16.74400
G1 X66.035 Y71.841 E16.81923
G1 X66.103 Y71.346 E16.85039
G1 X66.639 Y70.052 E16.93774
G1 X66.827 Y69.595 E16.96856
G1 X67.692 Y68.467 E17.05720
G1 X67.997 Y68.071 E17.08838
G1 X69.113 Y67.213 E17.17616
G1 X69.511 Y66.907 E17.20747
G0 F3060 X71.443 Y66.758
G1 F1260 X72.936 Y66.563 E17.30137
G1 X141.853 Y66.554 E21.59922
G1 X143.008 Y66.705 E21.67187
G1 X143.426 Y66.763 E21.69818
G1 X144.649 Y67.269 E21.78072
G1 X144.649 Y67.270 E21.78079
G1 X145.034 Y67.427 E21.80672
G1 X146.099 Y68.244 E21.89042
G1 X146.434 Y68.501 E21.91675
G1 X147.245 Y69.560 E21.99994
G1 X147.244 Y69.560 E22.00000
G1 X147.498 Y69.890 E22.02597
G1 X148.012 Y71.127 E22.10951
G1 X148.173 Y71.519 E22.13594
G1 X148.368 Y73.012 E22.22983
G1 X148.377 Y85.909 E23.03413
G1 X148.377 Y89.454 E23.25520
G1 X146.177 Y89.454 E23.39240
G1 X146.177 Y121.086 E25.36506
G1 X145.977 Y121.286 E25.38270
G1 X145.977 Y121.686 E25.40764
G1 X145.777 Y121.886 E25.42528
G1 X145.777 Y122.086 E25.43775
G1 X145.577 Y122.286 E25.45539
G1 X145.577 Y122.486 E25.46787
G1 X143.068 Y124.995 E25.68915
G1 X141.497 Y125.781 E25.79870
G1 X140.077 Y126.254 E25.89203
G1 X75.871 Y126.254 E29.89610
G1 X73.819 Y125.913 E30.02582
G1 X71.985 Y124.995 E30.15372
G1 X71.784 Y124.794 E30.17145
G1 X69.477 Y123.641 E30.33229
G1 X69.477 Y122.686 E30.39184
G1 X68.877 Y122.086 E30.44476
G1 X68.877 Y121.686 E30.46970
G1 X68.677 Y121.486 E30.48734
G1 X68.677 Y121.286 E30.49982
G1 X68.477 Y121.086 E30.51746
G1 X68.477 Y89.454 E32.49011
G1 X66.477 Y89.454 E32.61484
G1 X66.477 Y73.077 E33.63615
G1 X66.629 Y71.921 E33.70887
G1 X66.687 Y71.505 E33.73506
G1 X67.193 Y70.282 E33.81760
G1 X67.194 Y70.282 E33.81766
G1 X67.351 Y69.897 E33.84359
G1 X68.168 Y68.832 E33.92730
G1 X68.424 Y68.499 E33.95349
G1 X69.480 Y67.688 E34.03653
G1 X69.814 Y67.431 E34.06281
G1 X71.053 Y66.918 E34.14644
G1 X71.443 Y66.758 E34.17273
G0 F3060 X72.975 Y67.163
G1 F1260 X141.814 Y67.154 E38.46572
G1 X142.928 Y67.300 E38.53578
G1 X143.268 Y67.347 E38.55719
G1 X144.420 Y67.824 E38.63495
G1 X144.733 Y67.952 E38.65603
G1 X145.733 Y68.720 E38.73467
G1 X146.005 Y68.929 E38.75606
G1 X146.766 Y69.922 E38.83408
G1 X146.974 Y70.193 E38.85538
G1 X147.457 Y71.356 E38.93392
G1 X147.588 Y71.675 E38.95542
G1 X147.768 Y73.052 E39.04203
G1 X147.777 Y85.909 E39.84382
G1 X147.777 Y88.854 E40.02748
G1 X145.577 Y88.854 E40.16468
G1 X145.577 Y120.838 E42.15929
G1 X145.377 Y121.038 E42.17693
G1 X145.377 Y121.438 E42.20188
G1 X145.177 Y121.638 E42.21951
G1 X145.177 Y121.838 E42.23199
G1 X144.977 Y122.038 E42.24963
G1 X144.977 Y122.238 E42.26210
G1 X142.713 Y124.502 E42.46177
G1 X141.267 Y125.225 E42.56259
G1 X139.980 Y125.654 E42.64719
G1 X75.920 Y125.654 E46.64215
G1 X74.007 Y125.336 E46.76309
G1 X72.341 Y124.502 E46.87928
G1 X72.141 Y124.302 E46.89691
G1 X70.077 Y123.270 E47.04082
G1 X70.077 Y122.438 E47.09271
G1 X69.477 Y121.838 E47.14563
G1 X69.477 Y121.438 E47.17057
G1 X69.277 Y121.238 E47.18821
G1 X69.277 Y121.038 E47.20068
G1 X69.077 Y120.838 E47.21832
G1 X69.077 Y88.854 E49.21293
G1 X67.077 Y88.854 E49.33766
G1 X67.077 Y73.116 E50.31912
G1 X67.224 Y72.002 E50.38920
G1 X67.271 Y71.663 E50.41054
G1 X67.748 Y70.511 E50.48830
G1 X67.876 Y70.198 E50.50939
G1 X68.644 Y69.198 E50.58802
G1 X68.852 Y68.927 E50.60932
G1 X69.845 Y68.164 E50.68742
G1 X70.117 Y67.955 E50.70881
G1 X71.281 Y67.473 E50.78738
G1 X71.598 Y67.343 E50.80874
G1 X72.975 Y67.163 E50.89535
G0 F3060 X73.014 Y67.763
G1 F1260 X141.775 Y67.754 E55.18347
G1 X142.848 Y67.894 E55.25096
G1 X143.109 Y67.931 E55.26740
G1 X144.185 Y68.376 E55.34001
G1 X144.431 Y68.477 E55.35659
G1 X145.368 Y69.195 E55.43021
G1 X145.577 Y69.356 E55.44666
G1 X146.290 Y70.287 E55.51979
G1 X146.450 Y70.496 E55.53621
G1 X146.903 Y71.585 E55.60976
G1 X147.003 Y71.830 E55.62627
G1 X147.168 Y73.091 E55.70558
G1 X147.177 Y85.909 E56.50494
G1 X147.177 Y88.254 E56.65118
G1 X144.977 Y88.254 E56.78838
G1 X144.977 Y120.589 E58.80488
G1 X144.777 Y120.789 E58.82252
G1 X144.777 Y121.189 E58.84746
G1 X144.577 Y121.389 E58.86510
G1 X144.577 Y121.589 E58.87757
G1 X144.377 Y121.789 E58.89521
G1 X144.377 Y121.989 E58.90769
G1 X142.358 Y124.009 E59.08579
G1 X141.036 Y124.669 E59.17794
G1 X139.882 Y125.054 E59.25381
G1 X75.970 Y125.054 E63.23954
G1 X74.195 Y124.759 E63.35175
G1 X72.696 Y124.009 E63.45628
G1 X72.494 Y123.807 E63.47409
G1 X70.677 Y122.899 E63.60077
G1 X70.677 Y122.190 E63.64498
G1 X70.077 Y121.589 E63.69794
G1 X70.077 Y121.189 E63.72289
G1 X69.877 Y120.989 E63.74053
G1 X69.877 Y120.789 E63.75300
G1 X69.677 Y120.589 E63.77064
G1 X69.677 Y88.254 E65.78714
G1 X67.677 Y88.254 E65.91186
G1 X67.677 Y73.156 E66.85342
G1 X67.819 Y72.082 E66.92098
G1 X67.855 Y71.822 E66.93735
G1 X68.302 Y70.741 E67.01030
G1 X68.401 Y70.500 E67.02654
G1 X69.119 Y69.563 E67.10016
G1 X69.280 Y69.355 E67.11656
G1 X70.211 Y68.639 E67.18981
G1 X70.420 Y68.479 E67.20622
G1 X71.510 Y68.028 E67.27979
G1 X71.754 Y67.928 E67.29623
G1 X73.014 Y67.763 E67.37548
G0 F3060 X73.053 Y68.363
G1 F1260 X141.736 Y68.354 E71.65874
G1 X142.768 Y68.489 E71.72365
G1 X142.951 Y68.514 E71.73517
G1 X143.960 Y68.932 E71.80328
G1 X144.129 Y69.002 E71.81468
G1 X145.002 Y69.671 E71.88327
G1 X145.149 Y69.784 E71.89484
G1 X145.814 Y70.653 E71.96308
G1 X145.927 Y70.799 E71.97459
G1 X146.348 Y71.814 E72.04312
G1 X146.418 Y71.985 E72.05464
G1 X146.568 Y73.130 E72.12666
G1 X146.578 Y87.654 E73.03241
G1 X144.377 Y87.654 E73.16967
G1 X144.377 Y120.341 E75.20813
G1 X144.177 Y120.541 E75.22576
G1 X144.177 Y120.941 E75.25071
G1 X143.977 Y121.141 E75.26835
G1 X143.977 Y121.341 E75.28082
G1 X143.777 Y121.541 E75.29846
G1 X143.777 Y121.741 E75.31093
G1 X142.002 Y123.516 E75.46748
G1 X140.806 Y124.114 E75.55087
G1 X139.785 Y124.454 E75.61798
G1 X76.020 Y124.454 E79.59454
G1 X74.382 Y124.182 E79.69809
G1 X73.052 Y123.516 E79.79085
G1 X72.851 Y123.315 E79.80857
G1 X71.277 Y122.528 E79.91832
G1 X71.277 Y121.940 E79.95499
G1 X70.677 Y121.341 E80.00786
G1 X70.677 Y120.941 E80.03281
G1 X70.477 Y120.741 E80.05044
G1 X70.477 Y120.541 E80.06292
G1 X70.277 Y120.341 E80.08056
G1 X70.277 Y87.654 E82.11901
G1 X68.277 Y87.654 E82.24373
G1 X68.277 Y73.195 E83.14544
G1 X68.413 Y72.162 E83.21041
G1 X68.438 Y71.980 E83.22187
G1 X68.856 Y70.971 E83.28998
G1 X68.926 Y70.802 E83.30139
G1 X69.595 Y69.929 E83.36998
G1 X69.707 Y69.783 E83.38145
G1 X70.723 Y69.003 E83.46133
G1 X71.738 Y68.583 E83.52983
G1 X71.909 Y68.513 E83.54136
G1 X73.053 Y68.363 E83.61331
G0 F3060 X73.092 Y68.963
G1 F1260 X141.697 Y68.954 E87.89171
G1 X142.688 Y69.084 E87.95404
G1 X142.792 Y69.098 E87.96058
G1 X143.730 Y69.487 E88.02391
G1 X143.730 Y69.486 E88.02397
G1 X143.828 Y69.527 E88.03060
G1 X144.720 Y70.211 E88.10070
G1 X145.403 Y71.103 E88.17076
G1 X145.793 Y72.043 E88.23422
G1 X145.833 Y72.140 E88.24077
G1 X145.968 Y73.169 E88.30549
G1 X145.977 Y87.054 E89.17140
G1 X143.777 Y87.054 E89.30859
G1 X143.777 Y120.092 E91.36894
G1 X143.577 Y120.292 E91.38657
G1 X143.577 Y120.692 E91.41152
G1 X143.377 Y120.892 E91.42916
G1 X143.377 Y121.092 E91.44163
G1 X143.177 Y121.292 E91.45927
G1 X143.177 Y121.492 E91.47174
G1 X141.647 Y123.023 E91.60672
G1 X140.576 Y123.558 E91.68138
G1 X139.688 Y123.854 E91.73976
G1 X76.069 Y123.854 E95.70721
G1 X74.570 Y123.605 E95.80198
G1 X73.407 Y123.023 E95.88308
G1 X73.206 Y122.821 E95.90085
G1 X71.877 Y122.157 E95.99350
G1 X71.877 Y121.692 E96.02250
G1 X71.277 Y121.092 E96.07541
G1 X71.277 Y120.692 E96.10036
G1 X71.077 Y120.492 E96.11800
G1 X71.077 Y120.292 E96.13047
G1 X70.877 Y120.092 E96.14811
G1 X70.877 Y87.054 E98.20845
G1 X68.877 Y87.054 E98.33318
G1 X68.877 Y73.234 E99.19503
G1 X69.008 Y72.243 E99.25737
G1 X69.022 Y72.139 E99.26391
G1 X69.411 Y71.201 E99.32724
G1 X69.410 Y71.201 E99.32730
G1 X69.451 Y71.103 E99.33393
G1 X70.135 Y70.211 E99.40403
G1 X71.026 Y69.527 E99.47408
G1 X72.064 Y69.098 E99.54412
G1 X73.092 Y68.963 E99.60878
G0 F3060 X73.162 Y69.963
G0 X73.208 Y70.763
;TYPE:WALL-INNER
G1 F1260 X141.581 Y70.754 E103.87271
G1 X142.319 Y70.850 E103.91912
G1 X142.922 Y71.100 E103.95983
G1 X143.435 Y71.494 E104.00017
G1 X143.832 Y72.012 E104.04087
G1 X144.080 Y72.608 E104.08112
G1 X144.168 Y73.285 E104.12370
G1 X144.177 Y85.254 E104.87012
G1 X136.927 Y85.254 E105.32225
G1 X136.927 Y114.655 E107.15578
G1 X136.833 Y115.385 E107.20168
G1 X136.586 Y115.989 E107.24237
G1 X136.189 Y116.508 E107.28312
G1 X135.672 Y116.906 E107.32381
G1 X135.067 Y117.157 E107.36466
G1 X134.345 Y117.252 E107.41007
G1 X80.524 Y117.254 E110.76650
G1 X79.786 Y117.157 E110.81292
G1 X79.184 Y116.908 E110.85354
G1 X78.666 Y116.510 E110.89428
G1 X78.270 Y115.995 E110.93480
G1 X78.023 Y115.396 E110.97520
G1 X77.931 Y114.700 E111.01898
G1 X77.927 Y113.879 E111.07018
G1 X77.927 Y85.254 E112.85532
G1 X70.677 Y85.254 E113.30745
G1 X70.677 Y73.351 E114.04975
G1 X70.774 Y72.612 E114.09623
G1 X71.024 Y72.009 E114.13694
G1 X71.418 Y71.496 E114.17728
G1 X71.934 Y71.099 E114.21788
G1 X72.532 Y70.851 E114.25825
G1 X73.208 Y70.763 E114.30077
G0 F3060 X73.168 Y70.163
G1 F1260 X141.621 Y70.154 E118.56969
G1 X142.474 Y70.266 E118.62334
G1 X143.224 Y70.576 E118.67395
G1 X143.863 Y71.066 E118.72416
G1 X144.356 Y71.709 E118.77469
G1 X144.664 Y72.452 E118.82485
G1 X144.768 Y73.245 E118.87473
G1 X144.776 Y85.854 E119.66106
G1 X137.527 Y85.854 E120.11313
G1 X137.527 Y114.693 E121.91161
G1 X137.418 Y115.540 E121.96487
G1 X137.111 Y116.289 E122.01535
G1 X136.617 Y116.937 E122.06616
G1 X135.975 Y117.430 E122.11664
G1 X135.225 Y117.742 E122.16730
G1 X134.386 Y117.852 E122.22007
G1 X80.484 Y117.854 E125.58155
G1 X79.632 Y117.742 E125.63514
G1 X78.878 Y117.430 E125.68602
G1 X78.239 Y116.940 E125.73624
G1 X77.747 Y116.298 E125.78668
G1 X77.438 Y115.551 E125.83710
G1 X77.332 Y114.741 E125.88804
G1 X77.327 Y113.879 E125.94180
G1 X77.327 Y85.854 E127.68952
G1 X70.077 Y85.854 E128.14165
G1 X70.077 Y73.311 E128.92386
G1 X70.190 Y72.456 E128.97765
G1 X70.500 Y71.707 E129.02820
G1 X70.991 Y71.067 E129.07850
G1 X71.630 Y70.576 E129.12876
G1 X72.378 Y70.266 E129.17925
G1 X73.168 Y70.163 E129.22894
G0 F3060 X73.128 Y69.563
;TYPE:WALL-OUTER
G1 F1080 X141.661 Y69.554 E133.50284
G1 X142.607 Y69.678 E133.56234
G1 X142.633 Y69.682 E133.56398
G1 X143.502 Y70.041 E133.62262
G1 X143.525 Y70.051 E133.62418
G1 X144.294 Y70.640 E133.68459
G1 X144.879 Y71.404 E133.74460
G1 X145.238 Y72.271 E133.80312
G1 X145.250 Y72.299 E133.80502
G1 X145.368 Y73.205 E133.86200
G1 X145.377 Y86.454 E134.68824
G1 X138.127 Y86.454 E135.14037
G1 X138.127 Y114.732 E136.90386
G1 X138.003 Y115.693 E136.96429
G1 X137.635 Y116.592 E137.02487
G1 X137.047 Y117.363 E137.08534
G1 X136.277 Y117.955 E137.14591
G1 X135.380 Y118.326 E137.20645
G1 X134.426 Y118.452 E137.26646
G1 X80.443 Y118.454 E140.63299
G1 X79.475 Y118.326 E140.69388
G1 X78.577 Y117.955 E140.75447
G1 X77.832 Y117.383 E140.81305
G1 X77.812 Y117.368 E140.81461
G1 X77.236 Y116.617 E140.87363
G1 X77.220 Y116.595 E140.87533
G1 X76.860 Y115.723 E140.93416
G1 X76.853 Y115.701 E140.93560
G1 X76.732 Y114.784 E140.99328
G1 X76.727 Y113.879 E141.04972
G1 X76.727 Y86.454 E142.76002
G1 X69.477 Y86.454 E143.21215
G1 X69.477 Y73.270 E144.03434
G1 X69.602 Y72.324 E144.09385
G1 X69.606 Y72.298 E144.09549
G1 X69.965 Y71.429 E144.15412
G1 X69.975 Y71.406 E144.15569
G1 X70.563 Y70.639 E144.21596
G1 X71.329 Y70.051 E144.27618
G1 X72.221 Y69.682 E144.33638
G1 X73.128 Y69.563 E144.39343
G0 F3060 X73.081 Y70.960
;TYPE:FILL
G1 F1260 X119.193 Y117.072 E148.46024
G0 F3060 X120.041 Y117.072
G1 F1260 X73.912 Y70.942 E152.52860
G0 F3060 X74.760 Y70.942
G1 F1260 X120.890 Y117.072 E156.59700
G0 F3060 X121.739 Y117.072
G1 F1260 X75.609 Y70.942 E160.66540
G0 F3060 X76.458 Y70.942
G1 F1260 X122.587 Y117.072 E164.73375
G0 F3060 X123.436 Y117.072
G1 F1260 X77.306 Y70.942 E168.80215
G0 F3060 X78.155 Y70.942
G1 F1260 X124.284 Y117.072 E172.87051
G0 F3060 X125.133 Y117.072
G1 F1260 X79.002 Y70.941 E176.93900
G0 F3060 X79.851 Y70.941
G1 F1260 X125.981 Y117.072 E181.00745
G0 F3060 X126.830 Y117.072
G1 F1260 X80.699 Y70.941 E185.07593
G0 F3060 X81.548 Y70.941
G1 F1260 X127.678 Y117.072 E189.14438
G0 F3060 X128.527 Y117.072
G1 F1260 X82.397 Y70.941 E193.21282
G0 F3060 X83.245 Y70.941
G1 F1260 X129.375 Y117.072 E197.28127
G0 F3060 X130.224 Y117.072
G1 F1260 X84.094 Y70.941 E201.34971
G0 F3060 X84.941 Y70.941
G1 F1260 X131.072 Y117.072 E205.41820
G0 F3060 X131.921 Y117.072
G1 F1260 X85.790 Y70.941 E209.48669
G0 F3060 X86.638 Y70.941
G1 F1260 X132.769 Y117.072 E213.55518
G0 F3060 X133.618 Y117.072
G1 F1260 X87.487 Y70.941 E217.62367
G0 F3060 X88.336 Y70.941
G1 F1260 X134.451 Y117.056 E221.69075
G0 F3060 X135.164 Y116.920
G1 F1260 X89.184 Y70.941 E225.74588
G0 F3060 X90.033 Y70.941
G1 F1260 X135.727 Y116.635 E229.77582
G0 F3060 X136.173 Y116.232
G1 F1260 X90.880 Y70.940 E233.77036
G0 F3060 X91.729 Y70.940
G1 F1260 X136.502 Y115.713 E237.71908
G0 F3060 X136.692 Y115.055
G1 F1260 X92.577 Y70.940 E241.60977
G0 F3060 X93.426 Y70.940
G1 F1260 X136.746 Y114.260 E245.43035
G0 F3060 X136.746 Y113.412
G1 F1260 X94.275 Y70.940 E249.17609
G0 F3060 X95.123 Y70.940
G1 F1260 X136.746 Y112.563 E252.84700
G0 F3060 X136.746 Y111.715
G1 F1260 X95.972 Y70.940 E256.44308
G0 F3060 X96.819 Y70.939
G1 F1260 X136.746 Y110.866 E259.96441
G0 F3060 X136.746 Y110.018
G1 F1260 X97.668 Y70.939 E263.41091
G0 F3060 X98.516 Y70.939
G1 F1260 X136.746 Y109.169 E266.78257
G0 F3060 X136.746 Y108.320
G1 F1260 X99.365 Y70.939 E270.07936
G0 F3060 X100.214 Y70.939
G1 F1260 X136.746 Y107.472 E273.30132
G0 F3060 X136.746 Y106.623
G1 F1260 X101.062 Y70.939 E276.44844
G0 F3060 X101.910 Y70.939
G1 F1260 X136.746 Y105.775 E279.52078
G0 F3060 X136.746 Y104.926
G1 F1260 X102.758 Y70.939 E282.51828
G0 F3060 X103.607 Y70.939
G1 F1260 X136.746 Y104.078 E285.44095
G0 F3060 X136.746 Y103.229
G1 F1260 X104.455 Y70.939 E288.28878
G0 F3060 X105.304 Y70.939
G1 F1260 X136.746 Y102.381 E291.06179
G0 F3060 X136.746 Y101.532
G1 F1260 X106.152 Y70.939 E293.75996
G0 F3060 X107.001 Y70.939
G1 F1260 X136.746 Y100.684 E296.38330
G0 F3060 X136.746 Y99.835
G1 F1260 X107.849 Y70.938 E298.93185
G0 F3060 X108.697 Y70.938
G1 F1260 X136.746 Y98.987 E301.40561
G0 F3060 X136.746 Y98.138
G1 F1260 X109.546 Y70.938 E303.80449
G0 F3060 X110.394 Y70.938
G1 F1260 X136.746 Y97.290 E306.12859
G0 F3060 X136.746 Y96.441
G1 F1260 X111.243 Y70.938 E308.37780
G0 F3060 X112.091 Y70.938
G1 F1260 X136.746 Y95.593 E310.55223
G0 F3060 X136.746 Y94.744
G1 F1260 X112.940 Y70.938 E312.65179
G0 F3060 X113.788 Y70.937
G1 F1260 X136.746 Y93.896 E314.67659
