;Generated with Cura_SteamEngine 14.09
; Default start code
G28 ; Home extruder
G1 Z5 F500
M107 ; Turn off fan
G90 ; Absolute positioning
M82 ; Extruder in absolute mode
M190 S35
; Activate all used extruder
M104 T0 S195
G92 E0 ; Reset extruder position
; Wait for all used extruders to reach temperature
M109 T0 S195
;Layer count: 80
;LAYER:0
M107
G0 F3060 X71.210 Y80.229 Z0.250
G0 X72.960 Y79.103
;TYPE:SKIRT
G1 F1260 X73.933 Y78.741 E0.06474
G1 X74.952 Y78.516 E0.12982
G1 X75.880 Y78.451 E0.18784
G1 X144.614 Y78.450 E4.47428
G1 X145.534 Y78.514 E4.53179
G1 X146.552 Y78.737 E4.59678
G1 X147.526 Y79.097 E4.66154
G1 X148.445 Y79.598 E4.72681
G1 X149.278 Y80.221 E4.79168
G1 X150.021 Y80.960 E4.85703
G1 X150.645 Y81.794 E4.92199
G1 X151.146 Y82.710 E4.98710
G1 X151.508 Y83.683 E5.05184
G1 X151.732 Y84.699 E5.11673
G1 X151.799 Y85.627 E5.17475
G1 X151.800 Y134.367 E8.21431
G1 X151.735 Y135.287 E8.27183
G1 X151.512 Y136.302 E8.33663
G1 X151.152 Y137.276 E8.40139
G1 X150.652 Y138.193 E8.46653
G1 X150.028 Y139.030 E8.53163
G1 X149.287 Y139.771 E8.59699
G1 X148.457 Y140.394 E8.66171
G1 X147.539 Y140.896 E8.72696
G1 X146.566 Y141.258 E8.79170
G1 X145.550 Y141.482 E8.85658
G1 X144.623 Y141.549 E8.91454
G1 X75.884 Y141.550 E13.20129
G1 X74.962 Y141.485 E13.25894
G1 X73.947 Y141.262 E13.32374
G1 X72.973 Y140.902 E13.38850
G1 X72.054 Y140.401 E13.45378
G1 X71.219 Y139.777 E13.51878
G1 X70.479 Y139.039 E13.58396
G1 X69.855 Y138.207 E13.64882
G1 X69.353 Y137.289 E13.71407
G1 X68.991 Y136.316 E13.77881
G1 X68.766 Y135.297 E13.84389
G1 X68.701 Y134.372 E13.90171
G1 X68.700 Y133.288 E13.96932
G1 X68.700 Y111.750 E15.31248
G1 X67.400 Y111.750 E15.39356
G1 X67.400 Y94.750 E16.45372
G1 X68.700 Y94.750 E16.53479
G1 X68.700 Y85.636 E17.10317
G1 X68.763 Y84.715 E17.16074
G1 X68.987 Y83.697 E17.22574
G1 X69.347 Y82.723 E17.29050
G1 X69.848 Y81.804 E17.35577
G1 X70.472 Y80.969 E17.42078
G1 X71.210 Y80.229 E17.48596
G1 X72.042 Y79.605 E17.55081
G1 X72.960 Y79.103 E17.61606
G0 F3060 X75.038 Y79.112
G1 F1260 X75.901 Y79.051 E17.67002
G1 X144.593 Y79.050 E21.95384
G1 X145.449 Y79.109 E22.00735
G1 X146.383 Y79.314 E22.06698
G1 X147.277 Y79.645 E22.12643
G1 X148.120 Y80.104 E22.18629
G1 X148.885 Y80.676 E22.24586
G1 X149.567 Y81.355 E22.30588
G1 X150.139 Y82.119 E22.36540
G1 X150.599 Y82.960 E22.42518
G1 X150.931 Y83.854 E22.48465
G1 X151.137 Y84.786 E22.54417
G1 X151.199 Y85.649 E22.59813
G1 X151.200 Y134.345 E25.63495
G1 X151.139 Y135.201 E25.68847
G1 X150.935 Y136.133 E25.74796
G1 X150.604 Y137.027 E25.80742
G1 X150.146 Y137.869 E25.86719
G1 X149.573 Y138.636 E25.92690
G1 X148.893 Y139.317 E25.98691
G1 X148.132 Y139.888 E26.04624
G1 X147.289 Y140.349 E26.10616
G1 X146.395 Y140.681 E26.16564
G1 X145.463 Y140.887 E26.22516
G1 X144.601 Y140.949 E26.27906
G1 X75.905 Y140.950 E30.56313
G1 X75.048 Y140.889 E30.61671
G1 X74.116 Y140.685 E30.67621
G1 X73.222 Y140.354 E30.73566
G1 X72.379 Y139.895 E30.79552
G1 X71.613 Y139.322 E30.85517
G1 X70.933 Y138.644 E30.91506
G1 X70.361 Y137.882 E30.97448
G1 X69.900 Y137.039 E31.03440
G1 X69.568 Y136.145 E31.09387
G1 X69.362 Y135.211 E31.15352
G1 X69.301 Y134.350 E31.20734
G1 X69.300 Y133.287 E31.27364
G1 X69.300 Y111.150 E32.65416
G1 X68.000 Y111.150 E32.73523
G1 X68.000 Y95.350 E33.72056
G1 X69.300 Y95.350 E33.80164
G1 X69.300 Y85.657 E34.40612
G1 X69.359 Y84.800 E34.45969
G1 X69.564 Y83.866 E34.51932
G1 X69.895 Y82.972 E34.57877
G1 X70.354 Y82.129 E34.63863
G1 X70.927 Y81.363 E34.69829
G1 X71.605 Y80.683 E34.75817
G1 X72.367 Y80.111 E34.81759
G1 X73.210 Y79.650 E34.87751
G1 X74.104 Y79.318 E34.93698
G1 X75.038 Y79.112 E34.99663
G0 F3060 X75.922 Y79.651
G1 F1260 X144.572 Y79.650 E39.27783
G1 X145.364 Y79.705 E39.32734
G1 X146.214 Y79.891 E39.38161
G1 X147.028 Y80.192 E39.43573
G1 X147.795 Y80.610 E39.49020
G1 X148.492 Y81.131 E39.54447
G1 X149.113 Y81.749 E39.59911
G1 X149.633 Y82.444 E39.65324
G1 X150.051 Y83.210 E39.70766
G1 X150.354 Y84.024 E39.76182
G1 X150.542 Y84.873 E39.81605
G1 X150.599 Y85.671 E39.86595
G1 X150.600 Y134.324 E42.90008
G1 X150.544 Y135.115 E42.94953
G1 X150.358 Y135.964 E43.00373
G1 X150.057 Y136.778 E43.05786
G1 X149.639 Y137.544 E43.11228
G1 X149.118 Y138.243 E43.16664
G1 X148.499 Y138.862 E43.22124
G1 X147.806 Y139.382 E43.27527
G1 X147.039 Y139.801 E43.32977
G1 X146.225 Y140.104 E43.38394
G1 X145.376 Y140.292 E43.43817
G1 X144.580 Y140.349 E43.48793
G1 X75.926 Y140.350 E47.76939
G1 X75.134 Y140.294 E47.81890
G1 X74.285 Y140.108 E47.87310
G1 X73.471 Y139.807 E47.92723
G1 X72.704 Y139.389 E47.98170
G1 X72.006 Y138.867 E48.03606
G1 X71.388 Y138.250 E48.09052
G1 X70.867 Y137.556 E48.14463
G1 X70.448 Y136.789 E48.19914
G1 X70.145 Y135.975 E48.25330
G1 X69.957 Y135.125 E48.30759
G1 X69.901 Y134.329 E48.35736
G1 X69.900 Y133.287 E48.42234
G1 X69.900 Y110.550 E49.84028
G1 X68.600 Y110.550 E49.92135
G1 X68.600 Y95.950 E50.83185
G1 X69.900 Y95.950 E50.91292
G1 X69.900 Y85.678 E51.55351
G1 X69.955 Y84.886 E51.60302
G1 X70.141 Y84.035 E51.65734
G1 X70.442 Y83.221 E51.71147
G1 X70.860 Y82.454 E51.76594
G1 X71.382 Y81.756 E51.82030
G1 X71.999 Y81.138 E51.87476
G1 X72.693 Y80.617 E51.92888
G1 X73.460 Y80.198 E51.98338
G1 X74.274 Y79.895 E52.03755
G1 X75.124 Y79.707 E52.09183
G1 X75.922 Y79.651 E52.14172
G0 F3060 X75.943 Y80.251
G1 F1260 X144.552 Y80.250 E56.42037
G1 X145.278 Y80.300 E56.46575
G1 X146.045 Y80.468 E56.51472
G1 X146.779 Y80.740 E56.56353
G1 X147.470 Y81.116 E56.61259
G1 X148.098 Y81.586 E56.66151
G1 X148.658 Y82.144 E56.71081
G1 X149.127 Y82.770 E56.75959
G1 X149.504 Y83.459 E56.80857
G1 X149.777 Y84.194 E56.85747
G1 X149.946 Y84.959 E56.90632
G1 X149.999 Y85.692 E56.95216
G1 X150.000 Y134.303 E59.98367
G1 X149.949 Y135.030 E60.02912
G1 X149.781 Y135.795 E60.07797
G1 X149.509 Y136.529 E60.12678
G1 X149.133 Y137.219 E60.17579
G1 X148.663 Y137.849 E60.22480
G1 X148.104 Y138.408 E60.27410
G1 X147.480 Y138.876 E60.32275
G1 X146.790 Y139.254 E60.37181
G1 X146.055 Y139.527 E60.42071
G1 X145.290 Y139.696 E60.46956
G1 X144.558 Y139.749 E60.51533
G1 X75.947 Y139.750 E64.79410
G1 X75.220 Y139.699 E64.83955
G1 X74.454 Y139.531 E64.88846
G1 X73.720 Y139.259 E64.93728
G1 X73.029 Y138.883 E64.98633
G1 X72.400 Y138.412 E65.03534
G1 X71.842 Y137.855 E65.08451
G1 X71.373 Y137.230 E65.13324
G1 X70.995 Y136.540 E65.18230
G1 X70.722 Y135.805 E65.23120
G1 X70.552 Y135.038 E65.28019
G1 X70.501 Y134.307 E65.32589
G1 X70.500 Y133.287 E65.38950
G1 X70.500 Y109.950 E66.84486
G1 X69.200 Y109.950 E66.92593
G1 X69.200 Y96.550 E67.76159
G1 X70.500 Y96.550 E67.84266
G1 X70.500 Y85.698 E68.51942
G1 X70.550 Y84.971 E68.56487
G1 X70.718 Y84.204 E68.61383
G1 X70.990 Y83.470 E68.66265
G1 X71.366 Y82.779 E68.71171
G1 X71.837 Y82.150 E68.76071
G1 X72.394 Y81.592 E68.80988
G1 X73.019 Y81.123 E68.85861
G1 X73.709 Y80.745 E68.90768
G1 X74.444 Y80.472 E68.95657
G1 X75.211 Y80.302 E69.00557
G1 X75.943 Y80.251 E69.05133
G0 F3060 X75.964 Y80.851
G1 F1260 X144.531 Y80.850 E73.32735
G1 X145.193 Y80.896 E73.36874
G1 X145.876 Y81.045 E73.41233
G1 X146.530 Y81.288 E73.45584
G1 X147.145 Y81.623 E73.49952
G1 X147.705 Y82.041 E73.54310
G1 X148.204 Y82.538 E73.58702
G1 X148.621 Y83.095 E73.63041
G1 X148.957 Y83.709 E73.67406
G1 X149.200 Y84.364 E73.71763
G1 X149.351 Y85.046 E73.76119
G1 X149.399 Y85.714 E73.80295
G1 X149.400 Y134.282 E76.83179
G1 X149.353 Y134.944 E76.87318
G1 X149.204 Y135.626 E76.91671
G1 X148.961 Y136.280 E76.96022
G1 X148.627 Y136.895 E77.00386
G1 X148.208 Y137.455 E77.04748
G1 X147.710 Y137.954 E77.09145
G1 X147.155 Y138.371 E77.13474
G1 X146.540 Y138.707 E77.17844
G1 X145.885 Y138.950 E77.22201
G1 X145.203 Y139.101 E77.26557
G1 X144.536 Y139.149 E77.30727
G1 X75.968 Y139.150 E81.58336
G1 X75.305 Y139.103 E81.62481
G1 X74.623 Y138.954 E81.66835
G1 X73.969 Y138.711 E81.71186
G1 X73.354 Y138.376 E81.75553
G1 X72.794 Y137.957 E81.79915
G1 X72.296 Y137.461 E81.84298
G1 X71.878 Y136.905 E81.88636
G1 X71.542 Y136.290 E81.93006
G1 X71.299 Y135.635 E81.97363
G1 X71.148 Y134.952 E82.01725
G1 X71.101 Y134.286 E82.05889
G1 X71.100 Y109.350 E83.61397
G1 X69.800 Y109.350 E83.69504
G1 X69.800 Y97.150 E84.45587
G1 X71.100 Y97.150 E84.53694
G1 X71.100 Y85.719 E85.24981
G1 X71.146 Y85.056 E85.29125
G1 X71.295 Y84.373 E85.33485
G1 X71.538 Y83.719 E85.37836
G1 X71.873 Y83.104 E85.42203
G1 X72.292 Y82.544 E85.46565
G1 X72.788 Y82.046 E85.50948
G1 X73.344 Y81.628 E85.55286
G1 X73.959 Y81.292 E85.59656
G1 X74.614 Y81.049 E85.64013
G1 X75.297 Y80.898 E85.68375
G1 X75.964 Y80.851 E85.72545
G0 F3060 X75.985 Y81.451
G1 F1260 X144.510 Y81.450 E89.99886
G1 X145.108 Y81.491 E90.03624
G1 X145.707 Y81.622 E90.07448
G1 X146.281 Y81.835 E90.11266
G1 X146.820 Y82.129 E90.15095
G1 X147.312 Y82.496 E90.18923
G1 X147.750 Y82.933 E90.22781
G1 X148.115 Y83.420 E90.26577
G1 X148.410 Y83.959 E90.30409
G1 X148.623 Y84.534 E90.34233
G1 X148.756 Y85.133 E90.38059
G1 X148.799 Y85.735 E90.41823
G1 X148.800 Y134.261 E93.44444
G1 X148.758 Y134.858 E93.48177
G1 X148.627 Y135.457 E93.52000
G1 X148.414 Y136.031 E93.55819
G1 X148.120 Y136.570 E93.59647
G1 X147.753 Y137.062 E93.63475
G1 X147.316 Y137.499 E93.67329
G1 X146.829 Y137.865 E93.71129
G1 X146.290 Y138.160 E93.74960
G1 X145.715 Y138.373 E93.78784
G1 X145.116 Y138.506 E93.82611
G1 X144.515 Y138.549 E93.86368
G1 X75.989 Y138.550 E98.13715
G1 X75.391 Y138.508 E98.17454
G1 X74.792 Y138.377 E98.21278
G1 X74.218 Y138.164 E98.25096
G1 X73.679 Y137.870 E98.28925
G1 X73.187 Y137.502 E98.32756
G1 X72.750 Y137.066 E98.36606
G1 X72.384 Y136.579 E98.40405
G1 X72.089 Y136.040 E98.44237
G1 X71.876 Y135.465 E98.48061
G1 X71.743 Y134.866 E98.51888
G1 X71.701 Y134.265 E98.55645
G1 X71.700 Y108.750 E100.14763
G1 X70.400 Y108.750 E100.22870
G1 X70.400 Y97.750 E100.91469
G1 X71.700 Y97.750 E100.99577
G1 X71.700 Y85.740 E101.74474
G1 X71.741 Y85.141 E101.78219
G1 X71.872 Y84.542 E101.82042
G1 X72.085 Y83.968 E101.85860
G1 X72.379 Y83.429 E101.89689
G1 X72.747 Y82.937 E101.93521
G1 X73.183 Y82.500 E101.97371
G1 X73.670 Y82.134 E102.01170
G1 X74.209 Y81.839 E102.05002
G1 X74.784 Y81.626 E102.08826
G1 X75.383 Y81.493 E102.12652
G1 X75.985 Y81.451 E102.16415
G0 F3060 X76.034 Y82.451
G0 X75.645 Y83.279
;TYPE:WALL-INNER
G1 F1260 X144.455 Y83.250 E106.45534
G1 X144.850 Y83.277 E106.48003
G1 X145.195 Y83.353 E106.50206
G1 X145.537 Y83.479 E106.52479
G1 X145.844 Y83.647 E106.54661
G1 X146.134 Y83.864 E106.56920
G1 X146.386 Y84.114 E106.59134
G1 X146.597 Y84.397 E106.61335
G1 X146.768 Y84.708 E106.63548
G1 X146.892 Y85.044 E106.65782
G1 X146.970 Y85.395 E106.68024
G1 X146.999 Y85.798 E106.70544
G1 X147.000 Y134.201 E109.72398
G1 X146.972 Y134.600 E109.74893
G1 X146.896 Y134.945 E109.77096
G1 X146.770 Y135.287 E109.79369
G1 X146.600 Y135.598 E109.81579
G1 X146.392 Y135.877 E109.83749
G1 X146.131 Y136.138 E109.86051
G1 X145.852 Y136.347 E109.88225
G1 X145.541 Y136.518 E109.90439
G1 X145.205 Y136.642 E109.92672
G1 X144.854 Y136.720 E109.94914
G1 X144.452 Y136.749 E109.97428
G1 X76.049 Y136.750 E114.24008
G1 X75.648 Y136.722 E114.26515
G1 X75.304 Y136.646 E114.28712
G1 X74.962 Y136.520 E114.30985
G1 X74.655 Y136.352 E114.33167
G1 X74.366 Y136.136 E114.35417
G1 X74.113 Y135.884 E114.37644
G1 X73.902 Y135.602 E114.39840
G1 X73.731 Y135.291 E114.42054
G1 X73.607 Y134.955 E114.44287
G1 X73.529 Y134.604 E114.46530
G1 X73.500 Y133.286 E114.54751
G1 X73.500 Y85.795 E117.50918
G1 X73.527 Y85.399 E117.53393
G1 X73.603 Y85.054 E117.55596
G1 X73.729 Y84.712 E117.57869
G1 X73.897 Y84.405 E117.60052
G1 X74.113 Y84.116 E117.62302
G1 X74.365 Y83.863 E117.64529
G1 X74.647 Y83.652 E117.66725
G1 X74.958 Y83.481 E117.68939
G1 X75.294 Y83.357 E117.71172
G1 X75.645 Y83.279 E117.73414
G0 F3060 X76.031 Y82.651
G1 F1260 X144.467 Y82.650 E122.00200
G1 X144.938 Y82.683 E122.03145
G1 X145.369 Y82.777 E122.05896
G1 X145.783 Y82.930 E122.08648
G1 X146.169 Y83.140 E122.11388
G1 X146.525 Y83.407 E122.14164
G1 X146.841 Y83.722 E122.16946
G1 X147.102 Y84.070 E122.19659
G1 X147.314 Y84.458 E122.22416
G1 X147.470 Y84.877 E122.25204
G1 X147.565 Y85.305 E122.27939
G1 X147.599 Y85.783 E122.30927
G1 X147.600 Y134.214 E125.32956
G1 X147.566 Y134.689 E125.35926
G1 X147.472 Y135.119 E125.38671
G1 X147.319 Y135.533 E125.41423
G1 X147.106 Y135.923 E125.44195
G1 X146.843 Y136.276 E125.46940
G1 X146.531 Y136.588 E125.49691
G1 X146.180 Y136.852 E125.52430
G1 X145.791 Y137.064 E125.55193
G1 X145.372 Y137.220 E125.57981
G1 X144.944 Y137.315 E125.60716
G1 X144.467 Y137.349 E125.63698
G1 X76.035 Y137.350 E129.90459
G1 X75.561 Y137.317 E129.93422
G1 X75.130 Y137.222 E129.96174
G1 X74.716 Y137.069 E129.98927
G1 X74.330 Y136.859 E130.01667
G1 X73.974 Y136.592 E130.04442
G1 X73.658 Y136.276 E130.07229
G1 X73.397 Y135.930 E130.09932
G1 X73.185 Y135.541 E130.12695
G1 X73.029 Y135.122 E130.15483
G1 X72.934 Y134.694 E130.18217
G1 X72.901 Y134.219 E130.21186
G1 X72.900 Y85.783 E133.23247
G1 X72.933 Y85.311 E133.26197
G1 X73.027 Y84.880 E133.28948
G1 X73.180 Y84.466 E133.31701
G1 X73.390 Y84.080 E133.34441
G1 X73.657 Y83.724 E133.37216
G1 X73.973 Y83.408 E133.40003
G1 X74.319 Y83.147 E133.42706
G1 X74.708 Y82.935 E133.45469
G1 X75.127 Y82.779 E133.48257
G1 X75.555 Y82.684 E133.50991
G1 X76.031 Y82.651 E133.53967
G0 F3060 X76.003 Y82.051
;TYPE:WALL-OUTER
G1 F1080 X144.493 Y82.050 E137.81089
G1 X145.021 Y82.086 E137.84390
G1 X145.539 Y82.200 E137.87697
G1 X146.031 Y82.382 E137.90969
G1 X146.495 Y82.634 E137.94262
G1 X146.915 Y82.949 E137.97536
G1 X147.298 Y83.330 E138.00905
G1 X147.610 Y83.747 E138.04153
G1 X147.862 Y84.208 E138.07429
G1 X148.046 Y84.703 E138.10722
G1 X148.161 Y85.221 E138.14031
G1 X148.199 Y85.750 E138.17339
G1 X148.200 Y134.250 E141.19798
G1 X148.163 Y134.771 E141.23055
G1 X148.049 Y135.289 E141.26363
G1 X147.867 Y135.781 E141.29635
G1 X147.612 Y136.249 E141.32958
G1 X147.301 Y136.666 E141.36202
G1 X146.923 Y137.044 E141.39536
G1 X146.502 Y137.360 E141.42819
G1 X146.041 Y137.612 E141.46095
G1 X145.546 Y137.796 E141.49389
G1 X145.028 Y137.911 E141.52698
G1 X144.496 Y137.949 E141.56024
G1 X76.007 Y137.950 E145.83140
G1 X75.478 Y137.913 E145.86447
G1 X74.960 Y137.799 E145.89755
G1 X74.468 Y137.617 E145.93026
G1 X74.004 Y137.365 E145.96319
G1 X73.580 Y137.047 E145.99624
G1 X73.205 Y136.673 E146.02927
G1 X72.889 Y136.252 E146.06210
G1 X72.637 Y135.791 E146.09486
G1 X72.453 Y135.296 E146.12780
G1 X72.338 Y134.777 E146.16095
G1 X72.301 Y134.254 E146.19365
G1 X72.300 Y85.750 E149.21849
G1 X72.336 Y85.228 E149.25112
G1 X72.450 Y84.710 E149.28420
G1 X72.632 Y84.218 E149.31691
G1 X72.884 Y83.754 E149.34984
G1 X73.202 Y83.330 E149.38289
G1 X73.576 Y82.955 E149.41592
G1 X73.997 Y82.639 E149.44875
G1 X74.458 Y82.387 E149.48151
G1 X74.953 Y82.203 E149.51445
G1 X75.472 Y82.088 E149.54760
G1 X76.003 Y82.051 E149.58079
G0 F3060 X76.245 Y83.458
;TYPE:FILL
G1 F1260 X129.356 Y136.569 E154.26488
G0 F3060 X128.508 Y136.569
G1 F1260 X75.446 Y83.507 E158.94464
G0 F3060 X74.841 Y83.751
G1 F1260 X127.659 Y136.569 E163.60288
G0 F3060 X126.811 Y136.569
G1 F1260 X74.362 Y84.120 E168.22858
G0 F3060 X73.993 Y84.600
G1 F1260 X125.962 Y136.569 E172.81195
G0 F3060 X125.114 Y136.569
G1 F1260 X73.753 Y85.208 E177.34170
G0 F3060 X73.679 Y85.983
G1 F1260 X124.265 Y136.569 E181.80309
G0 F3060 X123.417 Y136.569
G1 F1260 X73.679 Y86.832 E186.18965
G0 F3060 X73.679 Y87.680
G1 F1260 X122.568 Y136.569 E190.50138
G0 F3060 X121.719 Y136.569
G1 F1260 X73.679 Y88.529 E194.73823
G0 F3060 X73.679 Y89.377
G1 F1260 X120.871 Y136.569 E198.90030
G0 F3060 X120.022 Y136.569
G1 F1260 X73.679 Y90.226 E202.98748
G0 F3060 X73.679 Y91.074
G1 F1260 X119.174 Y136.569 E206.99988
G0 F3060 X118.325 Y136.569
G1 F1260 X73.679 Y91.923 E210.93740
G0 F3060 X73.679 Y92.771
G1 F1260 X117.477 Y136.569 E214.80013
G0 F3060 X116.628 Y136.569
G1 F1260 X73.679 Y93.620 E218.58799
G0 F3060 X73.679 Y94.468
G1 F1260 X115.780 Y136.569 E222.30105
G0 F3060 X114.931 Y136.569
G1 F1260 X73.679 Y95.317 E225.93924
G0 F3060 X73.679 Y96.165
G1 F1260 X114.083 Y136.569 E229.50264
G0 F3060 X113.234 Y136.569
G1 F1260 X73.679 Y97.014 E232.99117
G0 F3060 X73.679 Y97.862
G1 F1260 X112.386 Y136.569 E236.40490
G0 F3060 X111.537 Y136.569
