;Generated with Cura_SteamEngine 14.09
; Default start code
G28 ; Home extruder
G1 Z5 F500
M107 ; Turn off fan
G90 ; Absolute positioning
M82 ; Extruder in absolute mode
M190 S35
; Activate all used extruder
M104 T0 S195
G92 E0 ; Reset extruder position
; Wait for all used extruders to reach temperature
M109 T0 S195
;Layer count: 161
;LAYER:0
M107
G0 F3000 X51.067 Y39.578 Z0.250
;TYPE:SKIRT
G1 F1200 X127.667 Y39.577 E4.77699
G1 X127.667 Y70.757 E6.72146
G1 X128.580 Y70.762 E6.77840
G1 X128.554 Y79.337 E7.31316
G1 X50.284 Y79.337 E12.19429
G1 X50.250 Y70.771 E12.72849
G1 X51.067 Y70.764 E12.77945
G1 X51.067 Y39.578 E14.72429
G0 F3000 X51.667 Y40.178
G1 F1200 X127.067 Y40.177 E19.42644
G1 X127.067 Y71.353 E21.37066
G1 X127.978 Y71.358 E21.42748
G1 X127.956 Y78.737 E21.88765
G1 X50.882 Y78.737 E26.69420
G1 X50.852 Y71.367 E27.15382
G1 X51.667 Y71.360 E27.20465
G1 X51.667 Y40.178 E29.14924
G0 F3000 X52.267 Y40.778
G1 F1200 X126.467 Y40.777 E33.77656
G1 X126.467 Y71.950 E35.72059
G1 X127.376 Y71.955 E35.77728
G1 X127.358 Y78.137 E36.16281
G1 X51.479 Y78.137 E40.89483
G1 X51.455 Y71.962 E41.27993
G1 X52.267 Y71.955 E41.33057
G1 X52.267 Y40.778 E43.27485
G0 F3000 X52.867 Y41.378
G1 F1200 X125.867 Y41.377 E47.82733
G1 X125.867 Y72.547 E49.77118
G1 X126.774 Y72.552 E49.82774
G1 X126.759 Y77.537 E50.13862
G1 X52.077 Y77.537 E54.79600
G1 X52.057 Y72.557 E55.10657
G1 X52.867 Y72.551 E55.15708
G1 X52.867 Y41.378 E57.10111
G0 F3000 X53.467 Y41.978
G1 F1200 X125.267 Y41.977 E61.57876
G1 X125.267 Y73.143 E63.52236
G1 X126.173 Y73.148 E63.57886
G1 X126.161 Y76.937 E63.81515
G1 X52.675 Y76.937 E68.39794
G1 X52.659 Y73.152 E68.63399
G1 X53.467 Y73.146 E68.68438
G1 X53.467 Y41.978 E70.62810
G0 F3000 X54.067 Y42.578
G1 F1200 X124.667 Y42.577 E75.03091
G1 X124.667 Y73.740 E76.97432
G1 X125.571 Y73.745 E77.03070
G1 X125.563 Y76.337 E77.19234
G1 X53.272 Y76.337 E81.70061
G1 X53.262 Y73.747 E81.86213
G1 X54.067 Y73.741 E81.91233
G1 X54.067 Y42.578 E83.85574
G0 F3000 X55.067 Y43.488
G0 X55.867 Y44.378
;TYPE:WALL-INNER
G1 F1200 X122.867 Y44.377 E88.03405
G1 X122.867 Y72.835 E89.80877
G1 X55.867 Y72.836 E93.98707
G1 X55.867 Y44.378 E95.76179
G0 F3000 X55.267 Y43.778
G1 F1200 X123.467 Y43.777 E100.01493
G1 X123.467 Y73.435 E101.86448
G1 X55.267 Y73.436 E106.11762
G1 X55.267 Y43.778 E107.96718
G0 F3000 X54.667 Y43.178
;TYPE:WALL-OUTER
G1 F1020 X124.067 Y43.177 E112.29515
G1 X124.067 Y74.035 E114.21954
G1 X54.667 Y74.036 E118.54752
G1 X54.667 Y43.178 E120.47191
G0 F3000 X55.067 Y43.488
G0 X56.045 Y44.590
;TYPE:FILL
G1 F1200 X84.110 Y72.655 E122.94708
G0 F3000 X84.958 Y72.655
G1 F1200 X56.861 Y44.558 E125.42507
G0 F3000 X57.710 Y44.558
G1 F1200 X85.807 Y72.655 E127.90307
G0 F3000 X86.655 Y72.655
G1 F1200 X58.559 Y44.558 E130.38102
G0 F3000 X59.407 Y44.558
G1 F1200 X87.504 Y72.655 E132.85901
G0 F3000 X88.352 Y72.655
G1 F1200 X60.256 Y44.558 E135.33696
G0 F3000 X61.104 Y44.558
G1 F1200 X89.201 Y72.655 E137.81496
G0 F3000 X90.050 Y72.655
G1 F1200 X61.953 Y44.558 E140.29295
G0 F3000 X62.801 Y44.558
G1 F1200 X90.898 Y72.655 E142.77094
G0 F3000 X91.747 Y72.655
G1 F1200 X63.650 Y44.558 E145.24894
G0 F3000 X64.498 Y44.558
G1 F1200 X92.595 Y72.655 E147.72693
G0 F3000 X93.444 Y72.655
G1 F1200 X65.347 Y44.558 E150.20493
G0 F3000 X66.195 Y44.558
G1 F1200 X94.292 Y72.655 E152.68292
G0 F3000 X95.141 Y72.655
G1 F1200 X67.044 Y44.558 E155.16091
G0 F3000 X67.892 Y44.558
G1 F1200 X95.989 Y72.655 E157.63891
G0 F3000 X96.838 Y72.655
G1 F1200 X68.741 Y44.558 E160.11690
G0 F3000 X69.589 Y44.558
G1 F1200 X97.686 Y72.655 E162.59489
G0 F3000 X98.535 Y72.655
G1 F1200 X70.438 Y44.558 E165.07289
G0 F3000 X71.286 Y44.558
G1 F1200 X99.383 Y72.655 E167.55088
G0 F3000 X100.232 Y72.655
G1 F1200 X72.135 Y44.558 E170.02888
G0 F3000 X72.984 Y44.558
G1 F1200 X101.080 Y72.655 E172.50683
G0 F3000 X101.929 Y72.655
G1 F1200 X73.832 Y44.558 E174.98482
G0 F3000 X74.681 Y44.558
G1 F1200 X102.777 Y72.655 E177.46277
G0 F3000 X103.626 Y72.655
G1 F1200 X75.529 Y44.558 E179.94076
G0 F3000 X76.378 Y44.558
G1 F1200 X104.475 Y72.655 E182.41876
G0 F3000 X105.323 Y72.655
G1 F1200 X77.226 Y44.558 E184.89675
G0 F3000 X78.075 Y44.558
G1 F1200 X106.172 Y72.655 E187.37475
G0 F3000 X107.020 Y72.655
G1 F1200 X78.923 Y44.558 E189.85274
G0 F3000 X79.772 Y44.558
G1 F1200 X107.869 Y72.655 E192.33073
G0 F3000 X108.717 Y72.655
G1 F1200 X80.620 Y44.558 E194.80873
G0 F3000 X81.469 Y44.558
G1 F1200 X109.566 Y72.655 E197.28672
G0 F3000 X110.414 Y72.655
G1 F1200 X82.317 Y44.558 E199.76471
G0 F3000 X83.166 Y44.558
G1 F1200 X111.263 Y72.655 E202.24271
G0 F3000 X112.111 Y72.655
G1 F1200 X84.014 Y44.558 E204.72070
G0 F3000 X84.863 Y44.558
G1 F1200 X112.960 Y72.655 E207.19870
G0 F3000 X113.808 Y72.655
G1 F1200 X85.711 Y44.558 E209.67669
G0 F3000 X86.560 Y44.558
G1 F1200 X114.657 Y72.655 E212.15468
G0 F3000 X115.505 Y72.655
G1 F1200 X87.409 Y44.558 E214.63263
G0 F3000 X88.257 Y44.558
G1 F1200 X116.354 Y72.655 E217.11063
G0 F3000 X117.202 Y72.655
G1 F1200 X89.106 Y44.558 E219.58858
G0 F3000 X89.953 Y44.557
G1 F1200 X118.051 Y72.655 E222.06666
G0 F3000 X118.900 Y72.655
G1 F1200 X90.802 Y44.557 E224.54474
G0 F3000 X91.650 Y44.557
G1 F1200 X119.748 Y72.655 E227.02282
G0 F3000 X120.597 Y72.655
G1 F1200 X92.499 Y44.557 E229.50091
G0 F3000 X93.347 Y44.557
G1 F1200 X121.445 Y72.655 E231.97899
G0 F3000 X122.294 Y72.655
G1 F1200 X94.196 Y44.557 E234.45707
G0 F3000 X95.045 Y44.557
G1 F1200 X122.686 Y72.199 E236.89489
G0 F3000 X122.686 Y71.350
G1 F1200 X95.893 Y44.557 E239.25788
G0 F3000 X96.742 Y44.557
G1 F1200 X122.686 Y70.502 E241.54604
G0 F3000 X122.686 Y69.653
G1 F1200 X97.590 Y44.557 E243.75936
G0 F3000 X98.439 Y44.557
G1 F1200 X122.686 Y68.805 E245.89785
G0 F3000 X122.686 Y67.956
G1 F1200 X99.287 Y44.557 E247.96151
G0 F3000 X100.136 Y44.557
G1 F1200 X122.686 Y67.107 E249.95029
G0 F3000 X122.686 Y66.259
G1 F1200 X100.984 Y44.557 E251.86428
G0 F3000 X101.833 Y44.557
G1 F1200 X122.686 Y65.410 E253.70339
G0 F3000 X122.686 Y64.562
G1 F1200 X102.681 Y44.557 E255.46772
G0 F3000 X103.530 Y44.557
G1 F1200 X122.686 Y63.713 E257.15717
G0 F3000 X122.686 Y62.865
G1 F1200 X104.378 Y44.557 E258.77183
G0 F3000 X105.227 Y44.557
G1 F1200 X122.686 Y62.016 E260.31161
G0 F3000 X122.686 Y61.168
G1 F1200 X106.075 Y44.557 E261.77661
G0 F3000 X106.924 Y44.557
G1 F1200 X122.686 Y60.319 E263.16672
G0 F3000 X122.686 Y59.471
G1 F1200 X107.772 Y44.557 E264.48205
G0 F3000 X108.621 Y44.557
G1 F1200 X122.686 Y58.622 E265.72251
G0 F3000 X122.686 Y57.774
G1 F1200 X109.470 Y44.557 E266.88812
G0 F3000 X110.318 Y44.557
G1 F1200 X122.686 Y56.925 E267.97891
G0 F3000 X122.686 Y56.077
G1 F1200 X111.167 Y44.557 E268.99486
G0 F3000 X112.015 Y44.557
G1 F1200 X122.686 Y55.228 E269.93599
G0 F3000 X122.686 Y54.380
G1 F1200 X112.864 Y44.557 E270.80227
G0 F3000 X113.712 Y44.557
G1 F1200 X122.686 Y53.531 E271.59373
G0 F3000 X122.686 Y52.682
G1 F1200 X114.561 Y44.557 E272.31031
G0 F3000 X115.409 Y44.557
G1 F1200 X122.686 Y51.834 E272.95210
G0 F3000 X122.686 Y50.985
G1 F1200 X116.258 Y44.557 E273.51901
G0 F3000 X117.106 Y44.557
G1 F1200 X122.686 Y50.137 E274.01113
G0 F3000 X122.686 Y49.288
G1 F1200 X117.955 Y44.557 E274.42838
G0 F3000 X118.803 Y44.557
G1 F1200 X122.686 Y48.440 E274.77084
G0 F3000 X122.686 Y47.591
G1 F1200 X119.652 Y44.557 E275.03842
G0 F3000 X120.500 Y44.557
G1 F1200 X122.686 Y46.743 E275.23121
G0 F3000 X122.686 Y45.894
G1 F1200 X121.349 Y44.557 E275.34913
G0 F3000 X122.197 Y44.557
G1 F1200 X122.686 Y45.046 E275.39226
G0 F3000 X83.261 Y72.655
G1 F1200 X56.045 Y45.439 E277.79255
G0 F3000 X56.045 Y46.287
G1 F1200 X82.413 Y72.655 E280.11806
G0 F3000 X81.564 Y72.655
G1 F1200 X56.045 Y47.136 E282.36869
G0 F3000 X56.045 Y47.984
G1 F1200 X80.716 Y72.655 E284.54453
G0 F3000 X79.867 Y72.655
G1 F1200 X56.045 Y48.833 E286.64549
G0 F3000 X56.045 Y49.682
G1 F1200 X79.019 Y72.655 E288.67162
G0 F3000 X78.170 Y72.655
G1 F1200 X56.045 Y50.530 E290.62292
G0 F3000 X56.045 Y51.379
G1 F1200 X77.322 Y72.655 E292.49938
G0 F3000 X76.473 Y72.655
G1 F1200 X56.045 Y52.227 E294.30101
G0 F3000 X56.045 Y53.076
G1 F1200 X75.625 Y72.655 E296.02781
G0 F3000 X74.776 Y72.655
G1 F1200 X56.045 Y53.924 E297.67978
G0 F3000 X56.045 Y54.773
G1 F1200 X73.928 Y72.655 E299.25691
G0 F3000 X73.079 Y72.655
G1 F1200 X56.045 Y55.621 E300.75921
G0 F3000 X56.045 Y56.470
G1 F1200 X72.230 Y72.655 E302.18664
G0 F3000 X71.382 Y72.655
G1 F1200 X56.045 Y57.318 E303.53927
G0 F3000 X56.045 Y58.167
G1 F1200 X70.533 Y72.655 E304.81703
G0 F3000 X69.685 Y72.655
G1 F1200 X56.045 Y59.015 E306.02000
G0 F3000 X56.045 Y59.864
G1 F1200 X68.836 Y72.655 E307.14809
G0 F3000 X67.988 Y72.655
G1 F1200 X56.045 Y60.712 E308.20140
G0 F3000 X56.045 Y61.561
G1 F1200 X67.139 Y72.655 E309.17983
G0 F3000 X66.291 Y72.655
G1 F1200 X56.045 Y62.409 E310.08346
G0 F3000 X56.045 Y63.258
G1 F1200 X65.442 Y72.655 E310.91223
G0 F3000 X64.594 Y72.655
G1 F1200 X56.045 Y64.107 E311.66615
G0 F3000 X56.045 Y64.955
G1 F1200 X63.745 Y72.655 E312.34525
G0 F3000 X62.897 Y72.655
G1 F1200 X56.045 Y65.804 E312.94951
G0 F3000 X56.045 Y66.652
G1 F1200 X62.048 Y72.655 E313.47894
G0 F3000 X61.200 Y72.655
G1 F1200 X56.045 Y67.501 E313.93354
G0 F3000 X56.045 Y68.349
G1 F1200 X60.351 Y72.655 E314.31330
G0 F3000 X59.503 Y72.655
G1 F1200 X56.045 Y69.198 E314.61824
G0 F3000 X56.045 Y70.046
G1 F1200 X58.654 Y72.655 E314.84833
G0 F3000 X57.805 Y72.655
G1 F1200 X56.045 Y70.895 E315.00356
G0 F3000 X56.045 Y71.743
G1 F1200 X56.957 Y72.655 E315.08399
;LAYER:1
M106 S127
G0 F3000 X55.617 Y73.576 Z0.500
;TYPE:WALL-INNER
G1 F1320 X55.617 Y43.638 E316.63984
G1 X123.117 Y43.637 E320.14774
G1 X123.117 Y73.575 E321.70359
G1 X55.617 Y73.576 E325.21149
G0 F3000 X55.117 Y74.076
G1 F1320 X55.117 Y43.138 E326.81931
G1 X123.617 Y43.137 E330.37918
G1 X123.617 Y74.075 E331.98700
G1 X55.117 Y74.076 E335.54687
G0 F3000 X54.617 Y74.576
;TYPE:WALL-OUTER
G1 F1020 X54.617 Y42.638 E337.20666
G1 X124.117 Y42.637 E340.81850
G1 X124.117 Y74.575 E342.47828
G1 X54.617 Y74.576 E346.09013
G0 F3000 X54.967 Y74.316
G0 X55.767 Y73.279
;TYPE:FILL
G1 F1320 X85.259 Y43.787 E348.25765
G0 F3000 X85.966 Y43.787
G1 F1320 X56.328 Y73.425 E350.43590
G0 F3000 X57.035 Y73.425
G1 F1320 X86.673 Y43.787 E352.61415
G0 F3000 X87.380 Y43.787
G1 F1320 X57.743 Y73.425 E354.79236
G0 F3000 X58.450 Y73.425
G1 F1320 X88.087 Y43.787 E356.97058
G0 F3000 X88.794 Y43.787
G1 F1320 X59.157 Y73.425 E359.14879
G0 F3000 X59.864 Y73.425
G1 F1320 X89.502 Y43.786 E361.32708
G0 F3000 X90.209 Y43.786
G1 F1320 X60.571 Y73.425 E363.50537
G0 F3000 X61.278 Y73.425
G1 F1320 X90.916 Y43.786 E365.68366
G0 F3000 X91.624 Y43.786
G1 F1320 X61.985 Y73.425 E367.86198
G0 F3000 X62.692 Y73.425
G1 F1320 X92.331 Y43.786 E370.04031
G0 F3000 X93.038 Y43.786
G1 F1320 X63.399 Y73.425 E372.21863
G0 F3000 X64.107 Y73.425
G1 F1320 X93.745 Y43.786 E374.39692
G0 F3000 X94.452 Y43.786
G1 F1320 X64.814 Y73.425 E376.57521
G0 F3000 X65.521 Y73.425
G1 F1320 X95.159 Y43.786 E378.75349
G0 F3000 X95.866 Y43.786
G1 F1320 X66.228 Y73.425 E380.93178
G0 F3000 X66.935 Y73.425
G1 F1320 X96.573 Y43.786 E383.11007
G0 F3000 X97.280 Y43.786
G1 F1320 X67.642 Y73.425 E385.28836
G0 F3000 X68.349 Y73.425
G1 F1320 X97.988 Y43.786 E387.46668
G0 F3000 X98.695 Y43.786
G1 F1320 X69.056 Y73.425 E389.64501
G0 F3000 X69.763 Y73.425
G1 F1320 X99.402 Y43.786 E391.82333
G0 F3000 X100.109 Y43.786
G1 F1320 X70.470 Y73.425 E394.00165
G0 F3000 X71.178 Y73.425
G1 F1320 X100.816 Y43.786 E396.17994
G0 F3000 X101.523 Y43.786
G1 F1320 X71.885 Y73.425 E398.35823
G0 F3000 X72.592 Y73.425
G1 F1320 X102.230 Y43.786 E400.53652
G0 F3000 X102.937 Y43.786
G1 F1320 X73.299 Y73.425 E402.71481
G0 F3000 X74.006 Y73.425
G1 F1320 X103.644 Y43.786 E404.89309
G0 F3000 X104.351 Y43.786
G1 F1320 X74.713 Y73.425 E407.07138
G0 F3000 X75.420 Y73.425
G1 F1320 X105.059 Y43.786 E409.24971
G0 F3000 X105.766 Y43.786
G1 F1320 X76.127 Y73.425 E411.42803
G0 F3000 X76.834 Y73.425
G1 F1320 X106.473 Y43.786 E413.60635
G0 F3000 X107.180 Y43.786
G1 F1320 X77.542 Y73.425 E415.78464
G0 F3000 X78.249 Y73.425
G1 F1320 X107.887 Y43.786 E417.96293
G0 F3000 X108.594 Y43.786
G1 F1320 X78.956 Y73.425 E420.14122
G0 F3000 X79.663 Y73.425
G1 F1320 X109.301 Y43.786 E422.31951
G0 F3000 X110.008 Y43.786
G1 F1320 X80.370 Y73.425 E424.49779
G0 F3000 X81.077 Y73.425
G1 F1320 X110.715 Y43.786 E426.67608
G0 F3000 X111.423 Y43.786
G1 F1320 X81.784 Y73.425 E428.85441
G0 F3000 X82.491 Y73.425
G1 F1320 X112.130 Y43.786 E431.03273
G0 F3000 X112.837 Y43.786
G1 F1320 X83.198 Y73.425 E433.21105
G0 F3000 X83.905 Y73.425
G1 F1320 X113.544 Y43.786 E435.38938
G0 F3000 X114.251 Y43.786
G1 F1320 X84.613 Y73.425 E437.56767
G0 F3000 X85.320 Y73.425
G1 F1320 X114.958 Y43.786 E439.74595
G0 F3000 X115.665 Y43.786
G1 F1320 X86.027 Y73.425 E441.92424
G0 F3000 X86.734 Y73.425
G1 F1320 X116.372 Y43.786 E444.10253
G0 F3000 X117.079 Y43.786
G1 F1320 X87.441 Y73.425 E446.28082
G0 F3000 X88.148 Y73.425
G1 F1320 X117.787 Y43.786 E448.45914
G0 F3000 X118.494 Y43.786
G1 F1320 X88.855 Y73.425 E450.63747
G0 F3000 X89.562 Y73.425
G1 F1320 X119.201 Y43.786 E452.81579
G0 F3000 X119.908 Y43.786
G1 F1320 X90.269 Y73.425 E454.99412
G0 F3000 X90.977 Y73.425
G1 F1320 X120.615 Y43.786 E457.17240
G0 F3000 X121.322 Y43.786
G1 F1320 X91.684 Y73.425 E459.35069
G0 F3000 X92.391 Y73.425
G1 F1320 X122.029 Y43.786 E461.52898
G0 F3000 X122.736 Y43.786
G1 F1320 X93.098 Y73.425 E463.70727
G0 F3000 X93.805 Y73.425
G1 F1320 X122.965 Y44.264 E465.85042
G0 F3000 X122.965 Y44.971
G1 F1320 X94.512 Y73.425 E467.94162
G0 F3000 X95.219 Y73.425
G1 F1320 X122.965 Y45.679 E469.98082
G0 F3000 X122.965 Y46.386
G1 F1320 X95.926 Y73.425 E471.96806
G0 F3000 X96.633 Y73.425
G1 F1320 X122.965 Y47.093 E473.90333
G0 F3000 X122.965 Y47.800
G1 F1320 X97.341 Y73.425 E475.78661
G0 F3000 X98.048 Y73.425
G1 F1320 X122.965 Y48.507 E477.61793
G0 F3000 X122.965 Y49.214
G1 F1320 X98.755 Y73.425 E479.39728
G0 F3000 X99.462 Y73.425
G1 F1320 X122.965 Y49.921 E481.12468
G0 F3000 X122.965 Y50.628
G1 F1320 X100.169 Y73.425 E482.80011
G0 F3000 X100.876 Y73.425
G1 F1320 X122.965 Y51.335 E484.42358
G0 F3000 X122.965 Y52.043
G1 F1320 X101.583 Y73.425 E485.99506
G0 F3000 X102.290 Y73.425
G1 F1320 X122.965 Y52.750 E487.51457
G0 F3000 X122.965 Y53.457
G1 F1320 X102.997 Y73.425 E488.98212
G0 F3000 X103.704 Y73.425
G1 F1320 X122.965 Y54.164 E490.39771
G0 F3000 X122.965 Y54.871
G1 F1320 X104.412 Y73.425 E491.76131
G0 F3000 X105.119 Y73.425
G1 F1320 X122.965 Y55.578 E493.07294
G0 F3000 X122.965 Y56.285
G1 F1320 X105.826 Y73.425 E494.33261
G0 F3000 X106.533 Y73.425
G1 F1320 X122.965 Y56.992 E495.54032
G0 F3000 X122.965 Y57.699
G1 F1320 X107.240 Y73.425 E496.69607
G0 F3000 X107.947 Y73.425
G1 F1320 X122.965 Y58.407 E497.79982
G0 F3000 X122.965 Y59.114
G1 F1320 X108.654 Y73.425 E498.85161
G0 F3000 X109.361 Y73.425
G1 F1320 X122.965 Y59.821 E499.85144
G0 F3000 X122.965 Y60.528
G1 F1320 X110.068 Y73.425 E500.79931
G0 F3000 X110.776 Y73.425
G1 F1320 X122.965 Y61.235 E501.69518
G0 F3000 X122.965 Y61.942
G1 F1320 X111.483 Y73.425 E502.53909
G0 F3000 X112.190 Y73.425
G1 F1320 X122.965 Y62.649 E503.33103
G0 F3000 X122.965 Y63.356
G1 F1320 X112.897 Y73.425 E504.07102
G0 F3000 X113.604 Y73.425
G1 F1320 X122.965 Y64.063 E504.75905
G0 F3000 X122.965 Y64.770
G1 F1320 X114.311 Y73.425 E505.39511
G0 F3000 X115.018 Y73.425
G1 F1320 X122.965 Y65.478 E505.97918
G0 F3000 X122.965 Y66.185
G1 F1320 X115.725 Y73.425 E506.51128
G0 F3000 X116.432 Y73.425
G1 F1320 X122.965 Y66.892 E506.99143
G0 F3000 X122.965 Y67.599
G1 F1320 X117.140 Y73.425 E507.41957
G0 F3000 X117.847 Y73.425
G1 F1320 X122.965 Y68.306 E507.79576
G0 F3000 X122.965 Y69.013
G1 F1320 X118.554 Y73.425 E508.11998
G0 F3000 X119.261 Y73.425
G1 F1320 X122.965 Y69.720 E508.39224
G0 F3000 X122.965 Y70.427
G1 F1320 X119.968 Y73.425 E508.61255
G0 F3000 X120.675 Y73.425
G1 F1320 X122.965 Y71.134 E508.78089
G0 F3000 X122.965 Y71.842
G1 F1320 X121.382 Y73.425 E508.89723
G0 F3000 X122.089 Y73.425
G1 F1320 X122.965 Y72.549 E508.96161
G0 F3000 X122.796 Y73.425
G1 F1320 X122.965 Y73.256 E508.97403
G0 F3000 X84.552 Y43.787
G1 F1320 X55.767 Y72.572 E511.08959
G0 F3000 X55.767 Y71.865
G1 F1320 X83.845 Y43.787 E513.15319
